!!!!SEGMENT: pl-cz--iii-669--001-011_scigalski-franciszek--missa-in-b-dona-nobis.krn
!!!cenid: 18xx:1116
!!!COM: Ścigalski, Franciszek
!!!COM-rismID: pe30002948
!!!CDT: 1782/01/29-1846/09/27
!!!CNT: Polish
!!!OPR: Missa in B
!!!OTL: Dona nobis
!!!OMV: 011
!!!PDT:
!!!AGN: Sacred; Mass
!!!SMS-siglum: PL-CZ
!!!SMS-shelfmark: III-669
!!!SMS-shelfwork: 001-011 M
!!!SMS-variant:
!!!SMS-altvar:
!!!NIFC-rismSourceID: 300001314
!!!NIFC-islandoraID: pl-cz:39833
!!!URL-pdf-islandora: https://repozytorium.nifc.pl/islandora/object/pl-cz%3A39833/datastream/PDF/view
!!!URL-scan:
!!!ONB-nifc: UWAGA: części Mszy: Kyrie, Gloria, Qui tollis, Quoniam, Credo, Et incarnatus, Et resurrexit, Sanctus, Benedictus, Agnus Dei, Dona nobis
!!!AIN: 1 alto 1 bass 2 clara 2 cor 1 fagot 1 flt 1 organ 1 soprn 1 tenor 1 timpa 1 tromp 1 viola 2 violn
!!!key: B-
**kern	**fba	**dynam	**kern	**dynam	**kern	**dynam	**kern	**dynam	**kern	**text	**kern	**text	**kern	**text	**kern	**text	**kern	**kern	**kern	**dynam	**kern	**dynam	**kern	**dynam	**kern	**dynam	**kern	**dynam	**kern	**dynam
*	*	*	*group4	*	*group4	*	*group4	*	*group3	*	*group3	*	*group3	*	*group3	*	*	*group2	*group2	*	*group2	*	*group1	*	*group1	*	*group1	*	*group1	*
*part16	*part16	*part16	*part15	*part15	*part14	*part14	*part13	*part13	*part12	*part12	*part11	*part11	*part10	*part10	*part9	*part9	*part8	*part7	*part6	*part6	*part5	*part5	*part4	*part4	*part3	*part3	*part2	*part2	*part1	*part1
*staff16	*	*	*staff15	*	*staff14	*	*staff13	*	*staff12	*staff12	*staff11	*staff11	*staff10	*staff10	*staff9	*staff9	*staff8	*staff7	*staff6	*	*staff5	*	*staff4	*	*staff3	*	*staff2	*	*staff1	*
*I"Organo	*	*	*I"Alto Viola	*	*I"Violino 2.do	*	*I"Violino. Primo.	*	*I"Basso!	*	*I"Tenore	*	*I"Alto	*	*I"Canto	*	*I"Tympano. in B.F.	*I"Claryino Princypalo	*I"Corno Sekundo in F	*	*I"Cornu Prymo in F	*	*I"Fagotto Oblgato	*	*I"Clarinetto 2do. in B	*	*I"Clarinetto 1mo in B	*	*I"Flauto Obligato.	*
*I'org	*	*	*I'a-vla	*	*I'vl 2	*	*I'vl 1	*	*I'B	*	*I'T	*	*I'A	*	*I'S	*	*I'timp	*I'clno princ	*I'cor 2 in F	*	*I'cor 1 in F	*	*I'fag	*	*I'cl 2 in B|b	*	*I'cl 1 in B|b	*	*I'fl	*
*Iorgan	*	*	*Iviola	*	*Ivioln	*	*Ivioln	*	*Ibass	*	*Itenor	*	*Ialto	*	*Isoprn	*	*Itimpa	*Itromp	*Icor	*	*Icor	*	*Ifagot	*	*Iclara	*	*Iclara	*	*Iflt	*
*ICklav	*	*	*ICstr	*	*ICstr	*	*ICstr	*	*ICvox	*	*ICvox	*	*ICvox	*	*ICvox	*	*ICidio	*ICbras	*ICbras	*	*ICbras	*	*ICww	*	*ICww	*	*ICww	*	*ICww	*
*IGcont	*	*	*	*	*	*	*	*	*IGcoro	*	*IGcoro	*	*IGcoro	*	*IGcoro	*	*	*	*	*	*	*	*	*	*	*	*	*	*	*
*clefF4	*	*	*clefC3	*	*clefG2	*	*clefG2	*	*clefF4	*	*clefC4	*	*clefC3	*	*clefC1	*	*clefF4	*clefG2	*clefG2	*	*clefG2	*	*clefF4	*	*clefG2	*	*clefG2	*	*clefG2	*
*	*	*	*	*	*	*	*	*	*	*	*	*	*	*	*	*	*ITrd1c2	*ITrd1c2	*ITrd1c2	*	*ITrd1c2	*	*	*	*ITrd1c2	*	*ITrd1c2	*	*	*
*k[b-e-]	*	*	*k[b-e-]	*	*k[b-e-]	*	*k[b-e-]	*	*k[b-e-]	*	*k[b-e-]	*	*k[b-e-]	*	*k[b-e-]	*	*k[b-e-]	*k[b-e-]	*k[b-e-]	*	*k[b-e-]	*	*k[b-e-]	*	*k[b-e-]	*	*k[b-e-]	*	*k[e-b-]	*
*B-:	*	*	*B-:	*	*B-:	*	*B-:	*	*B-:	*	*B-:	*	*B-:	*	*B-:	*	*B-:	*B-:	*B-:	*	*B-:	*	*B-:	*	*B-:	*	*B-:	*	*B-:	*
*M6/8	*	*	*M6/8	*	*M6/8	*	*M6/8	*	*M6/8	*	*M6/8	*	*M6/8	*	*M6/8	*	*M6/8	*M6/8	*M6/8	*	*M6/8	*	*M6/8	*	*M6/8	*	*M6/8	*	*M6/8	*
*all\right	*	*	*all\right	*	*all\right	*	*	*	*all\right	*	*all\right	*	*	*color:grey	*all\right	*	*	*all\right	*all\right	*	*all\right	*	*all\right	*	*all\right	*	*	*	*	*
=1	=1	=1	=1	=1	=1	=1	=1	=1	=1	=1	=1	=1	=1	=1	=1	=1	=1	=1	=1	=1	=1	=1	=1	=1	=1	=1	=1	=1	=1	=1
!LO:TX:b:i:t=Violono pizzicato:rj	!	!	!LO:TX:b:i:t=pizzicato	!	!LO:TX:a:i:t=pizicato	!	!	!	!	!	!	!	!LO:TX:a:i:t=Solo	!	!	!	!LO:TX:b:B:t=19.	!LO:TX:a:t=19	!LO:TX:t=P:problem=pauzy dopisane ołówkiem	!	!LO:TX:a:t=in B\n4	!	!	!	!LO:TX:a:i:t=Solo	!	!LO:TX:a:i:t=Solo.	!	!	!
!LO:TX:a:Bi:t=Allegretto	!	!LO:DY:t=p&colon;	!LO:TX:a:Bi:t=Allegretto&colon;	!	!LO:TX:a:Bi:t=Allegretto.	!	!LO:TX:a:B:t=allegretto.	!	!LO:TX:a:Bi:t=Allegretto	!	!LO:TX:a:Bi:t=Allegretto.	!	!LO:TX:a:Bi:t=Allegretto	!	!	!	!LO:TX:a:Bi:t=Allegretto	!LO:TX:a:Bi:t=Allegretto	!LO:TX:a:t=4:color=grey	!	!LO:TX:a:Bi:t=Allegro	!	!LO:TX:a:Bi:t=Allegretto.	!	!LO:TX:a:Bi:t=Allegretto.	!LO:DY:t=for	!LO:TX:a:B:t=Adagio:color=grey	!LO:DY:t=pia.	!LO:TX:a:B:t=Allegretto.	!
4B-\	6 7	p	4b-\	.	8r	.	8r	.	4B-\	Do-	4B-\	Do-	4b-\	Do-	4dd\	Do-	0.r	2.r	0.r	.	2.r	.	4BB-/	.	4b-\	f	4dd\	p	4ddd\	.
!	!	!	!	!	!	!	!LO:TX:b:i:t=pizzicato	!	!	!	!	!	!	!	!	!	!	!	!	!	!	!	!	!	!	!	!	!	!	!
.	.	.	.	.	8b-\L	.	8dd\L	.	.	.	.	.	.	.	.	.	.	.	.	.	.	.	.	.	.	.	.	.	.	.
8r	6 4	.	8r	.	8dd\J	.	8ff\J	.	8B-\	-na	8B-\	-na	8b-\	-na	8dd\	-na	.	.	.	.	.	.	8D/	.	8b-\	.	8dd\	.	8ddd\	.
4B-\	6 4	.	4b-\	.	8r	.	8r	.	4B-\	no-	4B-\	no-	4b-\	no-	4dd\	no-	.	.	.	.	.	.	4F\	.	4b-\	.	4dd\	.	4ddd\	.
.	.	.	.	.	8dd\L	.	8bb-\L	.	.	.	.	.	.	.	.	.	.	.	.	.	.	.	.	.	.	.	.	.	.	.
8r	6 4	.	8r	.	8ff\J	.	8ddd\J	.	8B-\	-bis	8B-\	-bis	8b-\	-bis	8dd\	-bis	.	.	.	.	.	.	8B-\	.	8b-\	.	8dd\	.	8ddd\	.
=2	=2	=2	=2	=2	=2	=2	=2	=2	=2	=2	=2	=2	=2	=2	=2	=2	=2	=2	=2	=2	=2	=2	=2	=2	=2	=2	=2	=2	=2	=2
4F\	8 6	.	4f\	.	8r	.	8r	.	4.F\	pa-	4.c\	pa-	4dd\	Pa-	4ff\	pa-	.	2.r	.	.	2.r	.	8A\L	.	4dd\	.	4ff\	.	4fff\	.
.	.	.	.	.	8ff\L	.	8aa\L	.	.	.	.	.	.	.	.	.	.	.	.	.	.	.	8c\	.	.	.	.	.	.	.
8r	7 5	.	8r	.	8aa\J	.	8ccc\J	.	.	.	.	.	8cc\	.	8ee-\	.	.	.	.	.	.	.	8B-\J	.	8cc\	.	8ee-\	.	8eee-\	.
4F\	.	.	4f\	.	8ccc\L	.	8eee-\L	.	4.F#X\	-cem	4.e-\	-cem	4.a\	-cem	4.cc\	-cem	.	.	.	.	.	.	8A\L	.	4a\	.	4cc\	.	4ccc\	.
.	.	.	.	.	8aa\	.	8ccc\	.	.	.	.	.	.	.	.	.	.	.	.	.	.	.	8G\	.	.	.	.	.	.	.
8F#X\	7 5	.	8f#X\	.	8ff\J	.	8aa\J	.	.	.	.	.	.	.	.	.	.	.	.	.	.	.	8F\J	.	8cc\	.	8ee-\	.	8eee-\	.
!	!	!	!	!	!	!	!	!	!	!	!	!	!	!	!	!	!	!	!	!	!	!	!	!	!LO:LB:g=original	!	!	!	!	!
=3	=3	=3	=3	=3	=3	=3	=3	=3	=3	=3	=3	=3	=3	=3	=3	=3	=3	=3	=3	=3	=3	=3	=3	=3	=3	=3	=3	=3	=3	=3
*	*	*	*	*	*	*	*	*	*	*ij	*	*	*	*	*	*	*	*	*	*	*	*	*	*	*	*	*	*	*	*
!	!	!	!	!	!	!	!	!	!	!	!	!	!	!	!	!	!	!	!	!	!	!	!	!	!	!	!	!	!	!LO:DY:t=for.
4G\	5 3	.	4g\	.	8r	.	8r	.	4G\	Do-	4d\	Do-	4b-\	Do-	4dd\	do-	.	2.r	.	.	2.r	.	8B-\L	.	4b-\	.	4dd\	.	4ddd\	f
.	.	.	.	.	8dd\L	.	8bb-\L	.	.	.	.	.	.	.	.	.	.	.	.	.	.	.	8A\	.	.	.	.	.	.	.
8r	3	.	8r	.	8ff\J	.	8ddd\J	.	8G\	-na	8B-\	-na	8b-\	-na	8dd\	-na	.	.	.	.	.	.	8G\J	.	8b-\	.	8dd\	.	8ddd\	.
4C/	5 3	.	4c\	.	8dd\L	.	8bb-\L	.	4C/	no-	4c\	no-	4g\	no-	4een\	no-	.	.	.	.	.	.	4c\	.	4g/	.	4eeX\	.	4eeen\	.
.	.	.	.	.	8cc\	.	8aa\	.	.	.	.	.	.	.	.	.	.	.	.	.	.	.	.	.	.	.	.	.	.	.
8r	3	.	8r	.	8b-\J	.	8gg\J	.	8C/	-bis	8c\	-bis	8g\	-bis	8ee\	-bis	.	.	.	.	.	.	8C/	.	8g/	.	8ee\	.	8eee\	.
!	!	!	!	!	!	!	!	!	!	!	!LO:LB:g=original	!	!LO:LB:g=original	!	!	!	!	!	!	!	!	!	!LO:LB:g=original	!	!	!	!	!	!LO:LB:g=original	!
=4	=4	=4	=4	=4	=4	=4	=4	=4	=4	=4	=4	=4	=4	=4	=4	=4	=4	=4	=4	=4	=4	=4	=4	=4	=4	=4	=4	=4	=4	=4
8Fn\L	5_ 3_	.	8c\L	.	8a\L	.	8ff\L	.	4.Fn\	pa-	4.c\	pa-	4.a\	Pa-	4.ff\	pa-	.	2.r	.	.	2.r	.	8F/L	.	4a\	.	4ff\	.	4fff\	.
8F\	.	.	8c\	.	8cc 8f\	.	8aa\	.	.	.	.	.	.	.	.	.	.	.	.	.	.	.	8C/	.	.	.	.	.	.	.
8F\J	.	.	8c\J	.	8ccJ 8f\	.	8ccc\J	.	.	.	.	.	.	.	.	.	.	.	.	.	.	.	8AA/J	.	8a\	.	8ff\	.	8fff\	.
4F\	.	.	4c\	.	4cc 4f\	.	4fff\	.	4F\	-cem	4c\	-cem	4a\	-cem	4ff\	-cem	.	.	.	.	.	.	4FF/	.	8a\L	.	8ff\L	.	8fff\L	.
*	*	*	*	*	*	*	*	*	*	*Xij	*	*	*	*	*	*	*	*	*	*	*	*	*	*	*	*	*	*	*	*
.	.	.	.	.	.	.	.	.	.	.	.	.	.	.	.	.	.	.	.	.	.	.	.	.	8cc\	.	8ee-X\	.	8eee-X\	.
8r	.	.	8r	.	8r	.	8r	.	8r	.	8r	.	8r	.	8r	.	.	.	.	.	.	.	8r	.	8a\J	.	8cc\J	.	8ddd\J	.
!LO:LB:g=original	!	!	!	!	!LO:LB:g=original	!	!	!	!LO:LB:g=original	!	!	!	!	!	!	!	!	!	!	!	!	!	!	!	!	!	!LO:LB:g=original	!	!	!
=5	=5	=5	=5	=5	=5	=5	=5	=5	=5	=5	=5	=5	=5	=5	=5	=5	=5	=5	=5	=5	=5	=5	=5	=5	=5	=5	=5	=5	=5	=5
!	!	!	!	!	!	!	!	!	!	!	!	!	!	!	!	!	!	!	!	!LO:DY:t=pia&colon;	!	!	!	!	!	!	!	!	!	!
4B-\	6 4	.	4b-\	.	8r	.	8r	.	4B-\	Do-	4B-\	Do-	4b-\	Do-	4dd\	do-	0.r	2.r	4b-\	p	4dd\	.	4BB-/	.	4b-\	.	4dd\	.	4ddd\	.
.	.	.	.	.	8b-\L	.	8dd\L	.	.	.	.	.	.	.	.	.	.	.	.	.	.	.	.	.	.	.	.	.	.	.
8r	6 4	.	8r	.	8dd\J	.	8ff\J	.	8B-\	-na	8B-\	-na	8b-\	-na	8dd\	-na	.	.	8b-\	.	8dd\	.	8D/	.	8b-\	.	8dd\	.	8ddd\	.
4B-\	6 4	.	4b-\	.	8r	.	8r	.	4B-\	no-	4B-\	no-	4b-\	no-	4dd\	no-	.	.	4b-\	.	4dd\	.	4F\	.	4b-\	.	4dd\	.	4ddd\	.
.	.	.	.	.	8dd\L	.	8bb-\L	.	.	.	.	.	.	.	.	.	.	.	.	.	.	.	.	.	.	.	.	.	.	.
!	!	!	!	!	!	!	!	!	!	!	!	!	!	!	!	!	!	!	!	!	!	!	!LO:TX:a:t=h	!	!	!	!	!	!	!
8r	6 4	.	8r	.	8ff\J	.	8ddd\J	.	8B-\	-bis	8B-\	-bis	8b-\	-bis	8dd\	-bis	.	.	8b-\	.	8dd\	.	8B-X\	.	8b-\	.	8dd\	.	8ddd\	.
=6	=6	=6	=6	=6	=6	=6	=6	=6	=6	=6	=6	=6	=6	=6	=6	=6	=6	=6	=6	=6	=6	=6	=6	=6	=6	=6	=6	=6	=6	=6
4F\	8 6	.	4f\	.	8r	.	8r	.	4.F\	pa-	4.c\	pa-	4dd\	pa-	4ff\	pa-	.	2.r	4f/	.	4cc\	.	8A\L	.	4dd\	.	4ff\	.	4fff\	.
!	!	!	!	!	!	!	!LO:LB:g=original	!	!	!	!	!	!	!	!	!	!	!	!	!	!	!	!	!	!	!	!	!	!	!
.	.	.	.	.	8ff\L	.	8aa\L	.	.	.	.	.	.	.	.	.	.	.	.	.	.	.	8c\	.	.	.	.	.	.	.
8r	7 5	.	8r	.	8aa\J	.	8ccc\J	.	.	.	.	.	8cc\	.	8ee-\	.	.	.	8f/	.	8cc\	.	8B-\J	.	8cc\	.	8ee-\	.	8eee-\	.
4F\	5 3	.	4f\	.	8ccc\L	.	8eee-\L	.	4.F\	-cem	4.e-\	-cem	4.a\	-cem	4.cc\	-cem	.	.	4f/	.	4.cc\	.	8A\L	.	4a\	.	4cc\	.	4ccc\	.
.	.	.	.	.	8aa\	.	8ccc\	.	.	.	.	.	.	.	.	.	.	.	.	.	.	.	8G\	.	.	.	.	.	.	.
8r	7 5	.	8r	.	8ff\J	.	8aa\J	.	.	.	.	.	.	.	.	.	.	.	8f/	.	.	.	8F\J	.	8cc\	.	8ee-\	.	8eee-\	.
!	!	!	!	!	!	!	!	!	!	!	!	!	!	!	!LO:LB:g=original	!	!	!	!	!	!	!	!	!	!	!	!	!	!	!
=7	=7	=7	=7	=7	=7	=7	=7	=7	=7	=7	=7	=7	=7	=7	=7	=7	=7	=7	=7	=7	=7	=7	=7	=7	=7	=7	=7	=7	=7	=7
*	*	*	*	*	*	*	*	*	*	*ij	*	*	*	*	*	*	*	*	*	*	*	*	*	*	*	*	*	*	*	*
!	!	!	!	!	!	!	!	!	!	!	!	!	!	!	!	!	!	!	!	!	!	!	!LO:TX:t=P:problem=mixed beam	!	!LO:TX:t=P:problem=mixed beam	!	!	!	!	!
4B-\	3	.	4b-\	.	8r	.	8r	.	4B-\	Do-	4d\	Do-	4f\	do-	4dd\	do-	.	2.r	4b-\	.	4dd\	.	8B-\L	.	8b-\L	.	8dd\L	.	8ddd\L	.
.	.	.	.	.	8dd\L	.	8bb-\L	.	.	.	.	.	.	.	.	.	.	.	.	.	.	.	8BB-/	.	8dd\	.	8ff\	.	8fff\	.
8r	.	.	8r	.	8ff\J	.	8ddd\J	.	8B-\	-na	8B-\	-na	8f\	-na	8dd\	-na	.	.	8b-\	.	8dd\	.	8D/J	.	8f/J	.	8b-\J	.	8bb-\J	.
4F\	5 3	.	4f\	.	8r	.	8r	.	4F\	no-	4c\	no-	4e-\	no-	4cc\	no-	.	.	4f/	.	4cc\	.	8F\L	.	8e-/L	.	8cc\L	.	8ccc\L	.
.	.	.	.	.	8a\L	.	8ff\L	.	.	.	.	.	.	.	.	.	.	.	.	.	.	.	8A\	.	8g/	.	8ee-\	.	8eee-\	.
8r	.	.	8r	.	8cc\J	.	8aa\J	.	8F\	-bis	8f\	-bis	8e-\	-bis	8cc\	-bis	.	.	8f/	.	8cc\	.	8F\J	.	8c/J	.	8a\J	.	8aa\J	.
!	!	!	!LO:LB:g=original	!	!	!	!	!	!	!	!	!	!	!	!	!	!	!	!	!	!LO:LB:g=original	!	!	!	!LO:LB:g=original	!	!	!	!	!
=8	=8	=8	=8	=8	=8	=8	=8	=8	=8	=8	=8	=8	=8	=8	=8	=8	=8	=8	=8	=8	=8	=8	=8	=8	=8	=8	=8	=8	=8	=8
8BB-|/L	.	.	8B-/L	.	8r	.	8r	.	4.BB-/	pa-	4.f\	pa-	4.d\	pa-	4.b-\	pa-	.	2.r	8d/L	.	8b-\L	.	8B-\L	.	8d/L	.	8b-\L	.	8bb-\L	.
8BB-|/	.	.	8B-/	.	8dd\L	.	8bb-\L	.	.	.	.	.	.	.	.	.	.	.	8d/	.	8b-\	.	8F\	.	8d/	.	8b-\	.	8ff\	.
8BB-|/J	.	.	8B-/J	.	8ff\J	.	8ddd\J	.	.	.	.	.	.	.	.	.	.	.	8d/J	.	8b-\J	.	8D\J	.	8d/J	.	8b-\J	.	8ddd\J	.
4BB-|/	.	.	4B-/	.	8dd\L	.	8bb-\L	.	4BB-/	-cem	4f\	-cem	4d\	-cem	4b-\	-cem	.	.	4d/	.	4b-\	.	4BB-/	.	8d/L	.	8b-\L	.	8bb-\L	.
*	*	*	*	*	*	*	*	*	*	*Xij	*	*	*	*	*	*	*	*	*	*	*	*	*	*	*	*	*	*	*	*
.	.	.	.	.	8ff\	.	8ddd\	.	.	.	.	.	.	.	.	.	.	.	.	.	.	.	.	.	8a/	.	8cc\	.	8ccc\	.
8r	.	.	8r	.	8dd\J	.	8bb-\J	.	8r	.	8r	.	8r	.	8r	.	.	.	8r	.	8r	.	8B-\	.	8b-/J	.	8dd\J	.	8ddd\J	.
=9	=9	=9	=9	=9	=9	=9	=9	=9	=9	=9	=9	=9	=9	=9	=9	=9	=9	=9	=9	=9	=9	=9	=9	=9	=9	=9	=9	=9	=9	=9
!	!	!	!	!	!	!	!	!	!	!	!	!	!	!	!	!	!	!	!LO:TX:a:t=3	!	!LO:TX:a:t=3	!	!	!	!	!	!	!	!	!
4F\	5 3	.	4f\	.	8r	.	8r	.	4F\	Do-	4d\	Do-	4a\	Do-	4cc\	do-	0.r	2.r	1.r	.	1.r	.	4f\	.	4a\	.	4cc\	.	4ccc\	.
.	.	.	.	.	8ff\L	.	8aa\L	.	.	.	.	.	.	.	.	.	.	.	.	.	.	.	.	.	.	.	.	.	.	.
8r	5 3	.	8r	.	8gg\J	.	8bbn\J	.	8F\	-na	8d\	-na	8a\	-na	8cc\	-na	.	.	.	.	.	.	8f\	.	8a\	.	8cc\	.	8ccc\	.
!	!	!	!	!	!	!	!	!	!	!	!	!	!LO:LB:g=original	!	!	!	!	!	!	!	!	!	!	!	!	!	!	!	!	!
8F\L	5 3	.	8f\L	.	8r	.	8r	.	8F\L	no-	8d\	no-	4a\	no-	4cc\	no-	.	.	.	.	.	.	8f\L	.	4a\	.	4cc\	.	4ccc\	.
8E-\	.	.	8e-\	.	8aa\L	.	8ccc\L	.	8E-\J	.	8c\	.	.	.	.	.	.	.	.	.	.	.	8e-\	.	.	.	.	.	.	.
8D\J	8 6	.	8d\J	.	8bbn\J	.	8ddd\J	.	8D\	-bis	8B-\	-bis	8b-\	-bis	8dd\	-bis	.	.	.	.	.	.	8d\J	.	8bX\	.	8dd\	.	8ddd\	.
!	!	!	!	!	!	!	!	!	!LO:LB:g=original	!	!LO:LB:g=original	!	!	!	!	!	!	!	!	!	!	!	!LO:LB:g=original	!	!	!	!	!	!	!
=10	=10	=10	=10	=10	=10	=10	=10	=10	=10	=10	=10	=10	=10	=10	=10	=10	=10	=10	=10	=10	=10	=10	=10	=10	=10	=10	=10	=10	=10	=10
4C/	3 1	.	4c\	.	8r	.	8r	.	4C/	Do-	4c\	Do-	8cc\L	Do-	8ee-X\L	do-	.	2.r	.	.	.	.	4c\	.	8cc\L	.	8ee-\L	.	8eee-\L	.
.	4 2	.	.	.	8ccc\L	.	8eee-\L	.	.	.	.	.	8dd\J	.	8ff\	.	.	.	.	.	.	.	.	.	8dd\	.	8ff\	.	8fff\	.
8r	5 3	.	8r	.	8aa\J	.	8ccc\J	.	8C/	-na	8c\	-na	8ee-\	-na	8gg\J	-na	.	.	.	.	.	.	8B-\	.	8ee-\J	.	8gg\J	.	8ggg\J	.
4F\	8 6	.	4f\	.	8ff\L	.	8aa\L	.	4F\	no-	4c\	no-	8ee-\L	no-	8gg\L	no-	.	.	.	.	.	.	4A\	.	8ee-\L	.	8gg\L	.	8ggg\L	.
.	.	.	.	.	8ee-\	.	8ccc\	.	.	.	.	.	8dd\J	.	8ff\	.	.	.	.	.	.	.	.	.	8dd\	.	8ff\	.	8fff\	.
8r	7 5	.	8r	.	8cc\J	.	8aa\J	.	8F\	-bis	8c\	-bis	8cc\	-bis	8ee-\J	-bis	.	.	.	.	.	.	8F\	.	8cc\J	.	8ee-\J	.	8eee-\J	.
!LO:LB:g=original	!	!	!	!	!LO:LB:g=original	!	!	!	!	!	!	!	!	!	!	!	!	!	!	!	!	!	!	!	!	!	!	!	!LO:LB:g=original	!
=11	=11	=11	=11	=11	=11	=11	=11	=11	=11	=11	=11	=11	=11	=11	=11	=11	=11	=11	=11	=11	=11	=11	=11	=11	=11	=11	=11	=11	=11	=11
*	*	*	*	*	*	*	*	*	*	*ij	*	*	*	*	*	*	*	*	*	*	*	*	*	*	*	*	*	*	*	*
4B-\	8 3	.	4b-\	.	8r	.	8r	.	4B-\	Do-	4d\	Do-	4b-\	Do-	4dd\	do-	.	2.r	2.r	.	2.r	.	8B-\L	.	8b-\L	.	8dd\L	.	4ddd\	.
.	.	.	.	.	8dd\L	.	8bb-X\L	.	.	.	.	.	.	.	.	.	.	.	.	.	.	.	8A\	.	8dd\	.	8bb-\	.	.	.
8r	7 5	.	8r	.	8ff\J	.	8ddd\J	.	8B-\	-na	8B-\	-na	8b-\	-na	8dd\	-na	.	.	.	.	.	.	8G\J	.	8cc\J	.	8aa\J	.	8ddd\	.
4c\	4	.	4cc\	.	8dd\L	.	8bb-\L	.	4c\	no-	4c\	no-	4g\	no-	4een\	no-	.	.	.	.	.	.	4c\	.	8b-\L	.	8gg\L	.	4eeen\	.
.	.	.	.	.	8cc\	.	8aa\	.	.	.	.	.	.	.	.	.	.	.	.	.	.	.	.	.	8a\	.	8ff\	.	.	.
8C/	.	.	8c\	.	8b-\J	.	8gg\J	.	8C/	-bis	8c\	-bis	8g\	-bis	8ee\	-bis	.	.	.	.	.	.	8C/	.	8g\J	.	8eeX\J	.	8eee\	.
*	*	*	*	*	*	*	*	*	*	*Xij	*	*	*	*	*	*	*	*	*	*	*	*	*	*	*	*	*	*	*	*
!	!	!	!	!	!	!	!	!	!	!	!	!	!	!	!	!	!	!	!LO:LB:g=original	!	!	!	!	!	!	!	!	!	!	!
=12	=12	=12	=12	=12	=12	=12	=12	=12	=12	=12	=12	=12	=12	=12	=12	=12	=12	=12	=12	=12	=12	=12	=12	=12	=12	=12	=12	=12	=12	=12
8F\L	3_	.	8f\L	.	8a\L	.	8ff\L	.	4.F\	pa-	4.c\	pa-	4.a\	Pa-	4.ff\	pa-	.	2.r	4r	.	4r	.	8F/L	.	8a\L	.	8ff\L	.	8fff\L	.
8F\	.	.	8c\	.	8cc 8f\	.	8aa\	.	.	.	.	.	.	.	.	.	.	.	.	.	.	.	8C/	.	8cc\	.	8aa\	.	8ccc\	.
8F\J	.	.	8A\J	.	8ccJ 8f\	.	8ccc\J	.	.	.	.	.	.	.	.	.	.	.	4r	.	4r	.	8AA/J	.	8b-\J	.	8gg\J	.	8aa\J	.
!	!	!	!	!	!	!	!	!	!	!	!	!	!	!	!	!	!	!	!	!	!	!	!	!	!	!	!LO:LB:g=original	!	!	!
4F\	.	.	4F/	.	4cc 4f\	.	4fff\	.	4F\	-cem	4c\	-cem	4a\	-cem	4ff\	-cem	.	.	.	.	.	.	4FF/	.	8a\L	.	8ff\L	.	8ff\L	.
.	.	.	.	.	.	.	.	.	.	.	.	.	.	.	.	.	.	.	8f/L	.	8ff\L	.	.	.	8f\	.	8a\	.	8ff\	.
8r	x	.	8r	.	8r	.	8r	.	8r	.	8r	.	8r	.	8r	.	.	.	8f/J	.	8ff\J	.	8r	.	8g\J	.	8b-\J	.	8ff\J	.
!	!	!	!	!	!	!	!LO:LB:g=original	!	!	!	!	!	!	!	!	!	!	!	!	!	!	!	!	!	!LO:LB:g=original	!	!	!	!	!
=13	=13	=13	=13	=13	=13	=13	=13	=13	=13	=13	=13	=13	=13	=13	=13	=13	=13	=13	=13	=13	=13	=13	=13	=13	=13	=13	=13	=13	=13	=13
!LO:TX:t=P:problem=takty nr 13-16 zapisane repetycją	!	!	!	!	!LO:TX:t=P:problem=takty nr 13-16 zapisane repetycją	!	!	!	!	!	!	!	!	!	!	!	!	!	!	!	!	!	!	!	!	!	!	!	!	!
4F\yy	5 3	.	4f\	.	8ryy	.	8r	.	4F\	Do-	4d\	Do-	4a\	Do	4cc\	do-	0.r	2.r	4f/	.	4ff\	.	4f\	.	4a\	.	4cc\	.	4ccc\	.
.	.	.	.	.	8ff\Lyy	.	8aa\L	.	.	.	.	.	.	.	.	.	.	.	.	.	.	.	.	.	.	.	.	.	.	.
8ryy	5 3	.	8r	.	8gg\Jyy	.	8bbn\J	.	8F\	-na	8d\	-na	8a\	na	8cc\	-na	.	.	8f/	.	8ff\	.	8f\	.	8a\	.	8cc\	.	8ccc\	.
8F\Lyy	5 3	.	8f\L	.	8ryy	.	8r	.	8F\L	no-	8d\	no-	4a\	no-	4cc\	no-	.	.	4f/	.	4ff\	.	8f\L	.	4a\	.	4cc\	.	4ccc\	.
8E-\yy	.	.	8e-\	.	8aa\Lyy	.	8ccc\L	.	8E-\J	.	8c\	.	.	.	.	.	.	.	.	.	.	.	8e-\	.	.	.	.	.	.	.
!	!	!	!	!	!	!	!	!	!	!	!	!	!	!	!	!	!	!	!	!	!	!	!	!	!	!	!	!	!LO:TX:a:t=d	!
8D\Jyy	8 6	.	8d\J	.	8bbn\Jyy	.	8ddd\J	.	8D\	-bis	8B-\	-bis	8b-\	-bis	8dd\	-bis	.	.	8r	.	8r	.	8d\J	.	8bX\	.	8dd\	.	8ddd\	.
!	!	!	!	!	!	!	!	!	!	!	!	!	!LO:LB:g=original	!	!	!	!	!	!	!	!	!	!	!	!	!	!	!	!	!
=14	=14	=14	=14	=14	=14	=14	=14	=14	=14	=14	=14	=14	=14	=14	=14	=14	=14	=14	=14	=14	=14	=14	=14	=14	=14	=14	=14	=14	=14	=14
*	*	*	*	*	*	*	*	*	*	*ij	*	*	*	*	*	*	*	*	*	*	*	*	*	*	*	*	*	*	*	*
!	!	!	!	!	!	!	!	!	!	!	!	!	!	!	!	!	!	!	!LO:TX:a:t=1	!	!LO:TX:a:t=1	!	!	!	!	!	!	!	!	!
4C/yy	3 1	.	4c\	.	8ryy	.	8r	.	4C/	Do-	4c\	Do-	8cc\L	Do-	8ee-X\L	do-	.	2.r	2.r	.	2.r	.	4c\	.	4dd\	.	8ee-X\L	.	8eee-X\L	.
.	4 2	.	.	.	8ccc\Lyy	.	8eee-\L	.	.	.	.	.	8dd\J	.	8ff\	.	.	.	.	.	.	.	.	.	.	.	8ff\	.	8fff\	.
8ryy	5 3	.	8r	.	8aa\Jyy	.	8ccc\J	.	8C/	-na	8c\	-na	8ee-\	-na	8gg\	-na	.	.	.	.	.	.	8B-\	.	8cc\	.	8gg\J	.	8ggg\J	.
4F\yy	8 6	.	4f\	.	8ff\Lyy	.	8aa\L	.	4F\	no-	4c\	no-	8ee-\L	no-	8gg\	no-	.	.	.	.	.	.	4A\	.	4a\	.	8gg\L	.	8ggg\L	.
.	.	.	.	.	8ee-\yy	.	8ccc\	.	.	.	.	.	8dd\J	.	8ff\	.	.	.	.	.	.	.	.	.	.	.	8ff\	.	8fff\	.
8ryy	7 5	.	8r	.	8cc\Jyy	.	8aa\J	.	8F\	-bis	8c\	-bis	8cc\	-bis	8ee-\J	-bis	.	.	.	.	.	.	8F\	.	8cc\	.	8ee-\J	.	8eee-\J	.
*	*	*	*	*	*	*	*	*	*	*Xij	*	*	*	*	*	*	*	*	*	*	*	*	*	*	*	*	*	*	*	*
!	!	!	!	!	!	!	!	!	!	!LO:LB:g=original	!LO:LB:g=original	!	!	!	!LO:LB:g=original	!	!	!	!	!	!	!	!LO:LB:g=original	!	!	!	!	!	!	!
=15	=15	=15	=15	=15	=15	=15	=15	=15	=15	=15	=15	=15	=15	=15	=15	=15	=15	=15	=15	=15	=15	=15	=15	=15	=15	=15	=15	=15	=15	=15
4B-\yy	8 3	.	4b-\	.	8ryy	.	8r	.	4B-\	Do-	4d\	Do-	4b-\	Do-	4dd\	do-	.	2.r	4b-\	.	4dd\	.	8B-\L	.	8b-X\L	.	8dd\L	.	4ddd\	.
.	.	.	.	.	8dd\Lyy	.	8bb-X\L	.	.	.	.	.	.	.	.	.	.	.	.	.	.	.	8A\	.	8dd\	.	8bb-\	.	.	.
8ryy	7 5	.	8r	.	8ff\Jyy	.	8ddd\J	.	8B-\	-na	8B-\	-na	8b-\	-na	8dd\	-na	.	.	8b-\	.	8dd\	.	8G\J	.	8cc\J	.	8aa\J	.	8ddd\	.
4c\yy	4	.	4cc\	.	8dd\Lyy	.	8bb-\L	.	4c\	no-	4c\	no-	4g\	no-	4een\	no-	.	.	4cc\	.	4cc\	.	4c\	.	8b-\L	.	8gg\L	.	4eeen\	.
.	.	.	.	.	8cc\yy	.	8aa\	.	.	.	.	.	.	.	.	.	.	.	.	.	.	.	.	.	8a\	.	8ff\	.	.	.
8C/yy	.	.	8c\	.	8b-\Jyy	.	8gg\J	.	8C/	-bis	8c\	-bis	8g\	-bis	8ee\	-bis	.	.	8cc\	.	8cc\	.	8C/	.	8g\J	.	8eeX\J	.	8eee\	.
!	!	!	!LO:LB:g=original	!	!	!	!	!	!	!	!	!	!	!	!	!	!	!	!	!	!	!	!	!	!	!	!	!	!	!
=16	=16	=16	=16	=16	=16	=16	=16	=16	=16	=16	=16	=16	=16	=16	=16	=16	=16	=16	=16	=16	=16	=16	=16	=16	=16	=16	=16	=16	=16	=16
8F\Lyy	.	.	8f\L	.	8a\Lyy	.	8ff\L	.	4.F\	pa-	4c\	pa-	4.a\	Pa-	4.ff\	pa-	.	2.r	4f/	.	4cc\	.	8F/L	.	4a\	.	4ff\	.	4fff\	.
8F\yy	.	.	8f\	.	8ccyy 8f\yy	.	8aa\	.	.	.	.	.	.	.	.	.	.	.	.	.	.	.	8C/	.	.	.	.	.	.	.
8F\Jyy	.	.	8f\J	.	8ccJyy 8f\yy	.	8ccc\J	.	.	.	4c\	-cem	.	.	.	.	.	.	8f/	.	8cc\	.	8AA/J	.	8a\	.	8ff\	.	8fff\	.
4F\yy	.	.	4f\	.	4ccyy 4f\yy	.	4fff\	.	4F\	-cem	.	.	4a\	-cem	4ff\	-cem	.	.	8f\L	.	8cc\L	.	4FF/	.	8a\L	.	8ff\L	.	8fff\L	.
.	.	.	.	.	.	.	.	.	.	.	4r	.	.	.	.	.	.	.	8b-\	.	8dd\	.	.	.	8cc\	.	8ee-X\	.	8eee-X\	.
8ryy	.	.	8r	.	8ryy	.	8r	.	8r	.	.	.	8r	.	8r	.	.	.	8cc\J	.	8ee-\J	.	8F\	.	8a\J	.	8cc\J	.	8ccc\J	.
!	!	!	!	!	!	!	!	!	!	!	!	!	!	!	!	!	!	!	!	!	!LO:LB:g=original	!	!	!	!	!	!	!	!	!
=17	=17	=17	=17	=17	=17	=17	=17	=17	=17	=17	=17	=17	=17	=17	=17	=17	=17	=17	=17	=17	=17	=17	=17	=17	=17	=17	=17	=17	=17	=17
*	*	*	*	*	*	*	*	*	*	*ij	*	*	*	*	*	*	*	*	*	*	*	*	*	*	*	*	*	*	*	*
4B-\	.	.	4b-\	.	8r	.	8r	.	4B-\	Do-	4B-\	Do-	4b-\	Do-	4dd\	do-	1.r	2.r	4b-\	.	4dd\	.	4BB-/	.	4b-\	.	4dd\	.	4ddd\	.
.	.	.	.	.	8b-\L	.	8dd\L	.	.	.	.	.	.	.	.	.	.	.	.	.	.	.	.	.	.	.	.	.	.	.
8r	.	.	8r	.	8dd\J	.	8ff\J	.	8B-\	-na	8B-\	-na	8b-\	-na	8dd\	-na	.	.	8b-\	.	8dd\	.	8D/	.	8b-\	.	8dd\	.	8ddd\	.
4B-\	.	.	4b-\	.	8r	.	8r	.	4B-\	no-	4B-\	no-	4b-\	no-	4dd\	no-	.	.	4b-\	.	4dd\	.	4F\	.	4b-\	.	4dd\	.	4ddd\	.
.	.	.	.	.	8dd\L	.	8bb-\L	.	.	.	.	.	.	.	.	.	.	.	.	.	.	.	.	.	.	.	.	.	.	.
8r	.	.	8r	.	8ff\J	.	8ddd\J	.	8B-\	-bis	8B-\	-bis	8b-\	-bis	8dd\	-bis	.	.	8b-\	.	8dd\	.	8B-\	.	8b-\	.	8dd\	.	8ddd\	.
!	!	!	!	!	!	!	!	!	!	!	!	!	!	!	!	!	!	!	!	!	!	!	!	!	!LO:LB:g=original	!	!	!	!LO:LB:g=original	!
=18	=18	=18	=18	=18	=18	=18	=18	=18	=18	=18	=18	=18	=18	=18	=18	=18	=18	=18	=18	=18	=18	=18	=18	=18	=18	=18	=18	=18	=18	=18
4F\	6 4	.	4f\	.	8r	.	8r	.	4.F\	pa-	4c\	pa-	(4dd\	Pa-	4ff\	pa-	.	2.r	4f/	.	4cc\	.	8A\L	.	4dd\	.	4ff\	.	4fff\	.
.	.	.	.	.	8ff\L	.	8aa\L	.	.	.	.	.	.	.	.	.	.	.	.	.	.	.	8c\	.	.	.	.	.	.	.
8r	6 4	.	8r	.	8aa\J	.	8ccc\J	.	.	.	4.e-\	-cem	8cc\)	.	8ee-X\	.	.	.	8f/	.	8cc\	.	8B-\J	.	8cc\	.	8ee-\	.	8eee-\	.
!	!	!	!	!	!	!	!	!	!	!	!	!	!LO:LB:g=original	!	!	!	!	!	!	!	!	!	!	!	!	!	!	!	!	!
4F\	6 4	.	4f\	.	8ccc\L	.	8eee-\L	.	4F\	-cem	.	.	4a\	-cem	4cc\	-cem	.	.	4.f/	.	4.cc\	.	8A\L	.	4a\	.	4cc\	.	4ccc\	.
*	*	*	*	*	*	*	*	*	*	*Xij	*	*	*	*	*	*	*	*	*	*	*	*	*	*	*	*	*	*	*	*
.	.	.	.	.	8aa\	.	8ccc\	.	.	.	.	.	.	.	.	.	.	.	.	.	.	.	8G\	.	.	.	.	.	.	.
8r	6 4	.	8r	.	8ff\J	.	8aa\J	.	8F\	Do-	8e-\	Do-	8a\	Do-	8cc\	do-	.	.	.	.	.	.	8F\J	.	8cc\	.	8ee-\	.	8eee-\	.
!	!	!	!	!	!	!	!LO:LB:g=original	!	!	!	!	!	!	!	!	!	!	!	!	!	!	!	!	!	!	!	!	!	!	!
=19	=19	=19	=19	=19	=19	=19	=19	=19	=19	=19	=19	=19	=19	=19	=19	=19	=19	=19	=19	=19	=19	=19	=19	=19	=19	=19	=19	=19	=19	=19
!	!	!	!	!	!	!	!	!	!	!	!	!	!	!	!	!	!	!	!	!	!	!	!LO:TX:t=P:problem=mixed beam	!	!LO:TX:t=P:problem=mixed beam	!	!	!	!	!
4B-\	8 6	.	4b-\	.	8r	.	8r	.	4B-\	-na	4f\	-na	4f\	-na	4dd\	-na	2.r	2.r	4b-\	.	4dd\	.	8B-\L	.	8b-\L	.	8dd\L	.	8ddd\L	.
.	.	.	.	.	8dd\L	.	8bb-\L	.	.	.	.	.	.	.	.	.	.	.	.	.	.	.	8BB-/	.	8dd\	.	8ff\	.	8fff\	.
8r	7 5	.	8r	.	8ff\J	.	8ddd\J	.	8B-\	no-	8f\	no-	8f\	no-	8dd\	no-	.	.	8b-\	.	8dd\	.	8D/J	.	8f/J	.	8b-\J	.	8bb-\J	.
4F\	5 3	.	4f\	.	8r	.	8r	.	4F\	-bis	4f\	-bis	4e-\	-bis	4cc\	-bis	.	.	4f/	.	4cc\	.	8F\L	.	8e-/L	.	8cc\L	.	8ccc\L	.
.	.	.	.	.	8a\L	.	8ff\L	.	.	.	.	.	.	.	.	.	.	.	.	.	.	.	8A\	.	8g/	.	8ee-\	.	8eee-\	.
8r	7 5	.	8r	.	8cc\J	.	8aa\J	.	8F\	pa-	8f\	pa-	8e-\	Pa-	8cc\	pa-	.	.	8f/	.	8cc\	.	8F\J	.	8c/J	.	8a\J	.	8aa\J	.
!LO:LB:g=original	!	!	!	!	!	!	!	!	!LO:LB:g=original	!	!LO:LB:g=original	!	!	!	!	!	!	!	!LO:LB:g=original	!	!	!	!LO:LB:g=original	!	!	!	!LO:LB:g=original	!	!	!
=20||	=20||	=20||	=20||	=20||	=20||	=20||	=20||	=20||	=20||	=20||	=20||	=20||	=20||	=20||	=20||	=20||	=20||	=20||	=20||	=20||	=20||	=20||	=20||	=20||	=20||	=20||	=20||	=20||	=20||;;	=20||
*M2/2	*	*	*M2/2	*	*M2/2	*	*M2/2	*	*M2/2	*	*M2/2	*	*M2/2	*	*M2/2	*	*M2/2	*M2/2	*M2/2	*	*M2/2	*	*M2/2	*	*M2/2	*	*M2/2	*	*M2/2	*
*met(c|)	*	*	*met(c|)	*	*met(c|)	*	*met(c|)	*	*met(c|)	*	*met(c|)	*	*met(c|)	*	*met(c|)	*	*met(c|)	*met(c|)	*met(c|)	*	*met(c|)	*	*met(c|)	*	*met(c|)	*	*met(c|)	*	*met(c|)	*
*2\right	*	*	*2\right	*	*2\right	*	*2\right	*	*	*	*2\right	*	*2\right	*	*2\right	*	*	*2\right	*	*	*2\right	*	*2\right	*	*	*	*2\right	*	*2\right	*
!LO:TX:b:i:t=Colarco	!	!	!LO:TX:b:i:t=col arco	!	!LO:TX:b:i:t=col arco	!	!LO:TX:b:i:t=col arco	!	!	!	!	!	!	!	!	!	!	!	!	!	!	!	!	!	!	!	!	!	!	!
!LO:TX:a:Bi:t=Allo molto	!	!LO:DY:t=for.:rj	!LO:TX:a:Bi:t=Allo Molto:	!	!LO:TX:a:Bi:t=Allo molto.	!	!LO:TX:a:Bi:t=Allo.	!	!LO:TX:a:Bi:t=Allo Molto	!	!LO:TX:a:B:t=Allo&colon; molto.	!	!LO:TX:a:Bi:t=Allo&colon; molto.	!	!LO:TX:a:B:t=Allo molto	!	!LO:TX:a:Bi:t=Allo Molto	!LO:TX:a:Bi:t=Allo molto	!	!LO:DY:t=for.:rj	!LO:TX:a:Bi:t=Allo molto	!LO:DY:t=for	!LO:TX:a:Bi:t=Allo Molto	!	!LO:TX:a:Bi:t=Allo. molto.	!LO:DY:t=for:rj	!LO:TX:a:B:t=Allo&colon; Molto.	!LO:DY:t=for.:rj	!LO:TX:a:B:t=Allo&colon; Molto.	!
2B-\	.	f	2b-\	.	2b-\	.	2bb-\	f	2BB-/	-cem	2f\	-cem	2d\	-cem	2b-\	-cem	2BB-/	2b-\	2B-/	f	2b-\	f	2B-\	.	2B-/	f	2b-\	f	2bb-\	.
4.B-'\	.	.	4.b-\	.	4.b-\	.	4.bb-\	.	2r	.	2r	.	2r	.	2r	.	4.BB-/	4.b-\	4.B-/	.	4.b-\	.	4.B-\	.	4.b-\	.	4.bb-\	.	4.bb-\	.
8B-'\	.	.	8b-\	.	8b-\	.	8bb-\	.	.	.	.	.	.	.	.	.	8BB-/	8b-\	8B-/	.	8b-\	.	8B-\	.	8b-\	.	8bb-\	.	8bb-\	.
!	!	!	!	!	!LO:LB:g=original	!	!	!	!	!	!	!	!	!	!	!	!	!	!	!	!	!	!	!	!	!	!	!	!	!
=21	=21	=21	=21	=21	=21	=21	=21	=21	=21	=21	=21	=21	=21	=21	=21	=21	=21	=21	=21	=21	=21	=21	=21	=21	=21	=21	=21	=21	=21	=21
!	!	!	!	!	!	!	!	!	!LO:TX:a:t=3.	!	!LO:TX:a:t=3	!	!LO:TX:a:t=3	!	!LO:TX:a:t=3.	!	!	!	!	!	!	!	!	!	!	!	!	!	!	!
8B-'\L	.	.	8b-\L	.	8b-\L	.	8bb-\L	.	0r	.	0r	.	0r	.	0r	.	4BB-/	4b-\	4B-/	.	4b-\	.	8B-\L	.	8b-\L	.	8bb-\L	.	8bb-\L	.
8c'\	.	.	8cc\	.	8cc\	.	8ccc\	.	.	.	.	.	.	.	.	.	.	.	.	.	.	.	8c\	.	8cc\	.	8ccc\	.	8ccc\	.
8d'\	.	.	8dd\	.	8dd\	.	8ddd\	.	.	.	.	.	.	.	.	.	4r	4r	4r	.	4r	.	8d\	.	8dd\	.	8ddd\	.	8ddd\	.
8c'\J	.	.	8cc\J	.	8cc\J	.	8ccc\J	.	.	.	.	.	.	.	.	.	.	.	.	.	.	.	8c\J	.	8cc\J	.	8ccc\J	.	8ccc\J	.
8B-'\L	.	.	8b-\L	.	8b-\L	.	8bb-\L	.	.	.	.	.	.	.	.	.	2r	2r	2r	.	2r	.	8B-\L	.	8b-\L	.	8bb-\L	.	8bb-\L	.
8A'\	.	.	8a\	.	8a\	.	8aa\	.	.	.	.	.	.	.	.	.	.	.	.	.	.	.	8A\	.	8a\	.	8aa\	.	8aa\	.
8G'\	.	.	8g\	.	8g\	.	8gg\	.	.	.	.	.	.	.	.	.	.	.	.	.	.	.	8G\	.	8g\	.	8gg\	.	8gg\	.
8F'\J	.	.	8f\J	.	8f\J	.	8ff\J	.	.	.	.	.	.	.	.	.	.	.	.	.	.	.	8F\J	.	8f\J	.	8ff\J	.	8ff\J	.
!	!	!	!LO:LB:g=original	!	!	!	!	!	!	!	!	!	!	!	!	!	!	!LO:LB:g=original	!	!	!	!	!	!	!	!	!	!	!	!
=22	=22	=22	=22	=22	=22	=22	=22	=22	=22	=22	=22	=22	=22	=22	=22	=22	=22	=22	=22	=22	=22	=22	=22	=22	=22	=22	=22	=22	=22	=22
!	!	!	!	!	!	!	!	!	!	!	!	!	!	!	!	!	!LO:TX:a:t=1.	!	!LO:TX:a:t=1	!	!LO:TX:a:t=1	!	!	!	!	!	!	!	!	!
8E-'\L	.	.	8e-\L	.	8e-/L	.	8ee-\L	.	.	.	.	.	.	.	.	.	1r	1r	1r	.	1r	.	8E-\L	.	8e-/L	.	8ee-\L	.	8eee-\L	.
8D'\	.	.	8d\	.	8d/	.	8dd\	.	.	.	.	.	.	.	.	.	.	.	.	.	.	.	8D\	.	8d/	.	8dd\	.	8ddd\	.
8C'\	.	.	8c\	.	8c/	.	8cc\	.	.	.	.	.	.	.	.	.	.	.	.	.	.	.	8C\	.	8c/	.	8cc\	.	8ccc\	.
8BB-'\J	.	.	8B-\J	.	8B-/J	.	8b-\J	.	.	.	.	.	.	.	.	.	.	.	.	.	.	.	8BB-\J	.	8B-/J	.	8b-\J	.	8bb-\J	.
!	!	!	!	!	!	!	!	!	!	!	!	!	!	!	!	!	!	!	!	!	!	!	!	!	!LO:LB:g=original	!	!	!	!	!
8AA'\L	.	.	8A\L	.	8A/L	.	8a\L	.	.	.	.	.	.	.	.	.	.	.	.	.	.	.	8AA/L	.	8A/L	.	8a\L	.	8aa\L	.
8BB-'\	.	.	8B-\	.	8B-/	.	8b-\	.	.	.	.	.	.	.	.	.	.	.	.	.	.	.	8BB-/	.	8B-/	.	8b-\	.	8bb-\	.
8C'\	.	.	8c\	.	8c/	.	8cc\	.	.	.	.	.	.	.	.	.	.	.	.	.	.	.	8C/	.	8c/	.	8cc\	.	8ccc\	.
8D'\J	.	.	8d\J	.	8d/J	.	8dd\J	.	.	.	.	.	.	.	.	.	.	.	.	.	.	.	8D/J	.	8d/J	.	8dd\J	.	8ddd\J	.
=23	=23	=23	=23	=23	=23	=23	=23	=23	=23	=23	=23	=23	=23	=23	=23	=23	=23	=23	=23	=23	=23	=23	=23	=23	=23	=23	=23	=23	=23	=23
2E-\	.	.	2e-\	.	2e-/	.	2ee-\	.	1r	.	1r	.	1r	.	1r	.	2FF/	2f/	2f/	.	2cc\	.	2E-\	.	2e-/	.	2ee-\	.	2eee-\	.
2r	.	.	2r	.	2r	.	2r	.	.	.	.	.	.	.	.	.	2r	2r	2r	.	2r	.	2r	.	2r	.	2r	.	2r	.
!	!	!	!	!	!	!	!	!	!	!	!	!	!	!	!	!	!	!	!	!	!	!	!	!	!	!	!	!	!LO:LB:g=original	!
=24	=24	=24	=24	=24	=24	=24	=24	=24	=24	=24	=24	=24	=24	=24	=24	=24	=24	=24	=24	=24	=24	=24	=24	=24	=24	=24	=24	=24	=24	=24
*	*	*	*	*	*	*	*	*	*2\right	*	*	*	*	*	*	*	*	*	*	*	*	*	*	*	*2\right	*	*	*	*	*
!LO:TX:a:t=3	!	!	!LO:TX:a:t=3	!	!LO:TX:a:t=3.	!	!LO:TX:a:t=3.	!	!	!	!	!	!	!	!	!	!LO:TX:a:t=3.	!LO:TX:a:t=3	!	!	!	!	!	!LO:DY:t=pia&colon;	!	!LO:DY:t=p.	!	!	!	!
0r	.	.	0r	.	0r	.	0r	.	2F\	Do-	2f\	Do-	2a\	Do-	2cc\	Do-	0r	0r	2f/	.	2cc\	.	8F\L	p	2a\	p	2cc\	p	8r	.
.	.	.	.	.	.	.	.	.	.	.	.	.	.	.	.	.	.	.	.	.	.	.	8G\	.	.	.	.	.	16ff\LL	.
.	.	.	.	.	.	.	.	.	.	.	.	.	.	.	.	.	.	.	.	.	.	.	.	.	.	.	.	.	16een\JJ	.
.	.	.	.	.	.	.	.	.	.	.	.	.	.	.	.	.	.	.	.	.	.	.	8A\	.	.	.	.	.	8ff\L	.
.	.	.	.	.	.	.	.	.	.	.	.	.	.	.	.	.	.	.	.	.	.	.	8B-\J	.	.	.	.	.	8aa\	.
.	.	.	.	.	.	.	.	.	2F#X\	-na	2f\	-na	2a\	-na	2cc\	-na	.	.	2f/	.	2cc\	.	8c\L	.	2a\	.	2cc\	.	8ccc\	.
.	.	.	.	.	.	.	.	.	.	.	.	.	.	.	.	.	.	.	.	.	.	.	8d\	.	.	.	.	.	8aa\J	.
.	.	.	.	.	.	.	.	.	.	.	.	.	.	.	.	.	.	.	.	.	.	.	8e-\	.	.	.	.	.	4fff\	.
.	.	.	.	.	.	.	.	.	.	.	.	.	.	.	.	.	.	.	.	.	.	.	8c\J	.	.	.	.	.	.	.
!	!	!	!	!	!	!	!	!	!	!	!	!	!	!	!LO:PB:g=original	!	!	!	!	!	!LO:LB:g=original	!	!LO:LB:g=original	!	!	!	!	!	!	!
=25	=25	=25	=25	=25	=25	=25	=25	=25	=25	=25	=25	=25	=25	=25	=25	=25	=25	=25	=25	=25	=25	=25	=25	=25	=25	=25	=25	=25	=25	=25
*	*	*	*	*	*	*	*	*	*	*	*	*	*	*	*	*	*	*	*2\right	*	*	*	*	*	*	*	*	*	*	*
.	.	.	.	.	.	.	.	.	2G\	no-	2f\	no-	2b-\	No-	2dd\	no-	.	.	2b-\	.	2dd\	.	8B-\L	.	2b-\	.	2dd\	.	8ddd\L	.
.	.	.	.	.	.	.	.	.	.	.	.	.	.	.	.	.	.	.	.	.	.	.	8A\	.	.	.	.	.	8ccc\	.
.	.	.	.	.	.	.	.	.	.	.	.	.	.	.	.	.	.	.	.	.	.	.	8G\	.	.	.	.	.	8bb-\	.
.	.	.	.	.	.	.	.	.	.	.	.	.	.	.	.	.	.	.	.	.	.	.	8F\J	.	.	.	.	.	8aa\J	.
.	.	.	.	.	.	.	.	.	2E-\	-bis	4e-\	-bis	4cc\	-bis	4ee-\	-bis	.	.	2B-/	.	2b-\	.	8E-/L	.	4cc\	.	4ee-\	.	8gg\L	.
.	.	.	.	.	.	.	.	.	.	.	.	.	.	.	.	.	.	.	.	.	.	.	8D/	.	.	.	.	.	8ccc\	.
.	.	.	.	.	.	.	.	.	.	.	4g\	p	4ee-\	.	4gg\	.	.	.	.	.	.	.	8C/	.	4ee-\	.	4gg\	.	8eee-X\	.
.	.	.	.	.	.	.	.	.	.	.	.	.	.	.	.	.	.	.	.	.	.	.	8BB-/J	.	.	.	.	.	8ccc\J	.
!	!	!	!	!	!	!	!	!	!	!	!	!	!LO:LB:g=original	!	!	!	!	!	!	!	!	!	!	!	!	!	!LO:LB:g=original	!	!	!
=26	=26	=26	=26	=26	=26	=26	=26	=26	=26	=26	=26	=26	=26	=26	=26	=26	=26	=26	=26	=26	=26	=26	=26	=26	=26	=26	=26	=26	=26	=26
1r	.	.	1r	.	1r	.	1r	.	1Fn	pa-	1f	pa-	4.dd\	Do-	4.ff\	no-	1r	1r	2d/	.	2b-\	.	8E-\L	.	4.dd\	.	4.ff\	.	8bb-\L	.
.	.	.	.	.	.	.	.	.	.	.	.	.	.	.	.	.	.	.	.	.	.	.	8D\	.	.	.	.	.	8ddd\	.
.	.	.	.	.	.	.	.	.	.	.	.	.	.	.	.	.	.	.	.	.	.	.	8E-\	.	.	.	.	.	8bb-\	.
.	.	.	.	.	.	.	.	.	.	.	.	.	8b-\	-na	8dd\	-bis	.	.	.	.	.	.	8C\J	.	8b-\	.	8dd\	.	8ddd\J	.
!	!	!	!	!	!	!	!	!	!	!	!	!	!	!	!	!	!	!	!	!	!	!	!LO:TX:t=P:problem=mixed beam	!	!	!	!	!	!	!
.	.	.	.	.	.	.	.	.	.	.	.	.	8dd\L	no-	8ff\L	.	.	.	2f/	.	2cc\	.	8F\L	.	8dd\L	.	8ff\L	.	8ff\L	.
.	.	.	.	.	.	.	.	.	.	.	.	.	8cc\	.	8ee-\	.	.	.	.	.	.	.	8En\	.	8cc\	.	8ee-\	.	8aa\	.
.	.	.	.	.	.	.	.	.	.	.	.	.	8b-\	.	8dd\	pa-	.	.	.	.	.	.	8F\	.	8f\	.	8dd\	.	8ff\	.
.	.	.	.	.	.	.	.	.	.	.	.	.	8a\J	.	8cc\J	.	.	.	.	.	.	.	8FF/J	.	8e-\J	.	8cc\J	.	8aa\J	.
!LO:LB:g=original	!	!	!	!	!	!	!	!	!	!	!	!	!	!	!	!	!	!	!	!	!	!	!	!	!	!	!	!	!	!
=27	=27	=27	=27	=27	=27	=27	=27	=27	=27	=27	=27	=27	=27	=27	=27	=27	=27	=27	=27	=27	=27	=27	=27	=27	=27	=27	=27	=27	=27	=27
!	!	!	!	!	!	!	!	!	!	!	!	!	!	!	!	!	!	!	!	!	!	!	!	!LO:DY:t=for&colon;	!	!LO:DY:t=for:rj	!	!	!	!
8BB-'/L	.	.	8B-\L	.	8B-/L	.	8b-\L	.	4BB-/	-cem	4f\	-cem	4b-\	-bis	4b-\	-cem	4BB-/	4b-\	4d/	.	4b-\	.	8BB-/L	f	8B-/L	f	8b-\L	.	8b-\L	.
16C'/L	.	.	16c\L	.	16c/L	.	16cc\L	.	.	.	.	.	.	.	.	.	.	.	.	.	.	.	16C/L	.	16c/L	.	16cc\L	.	16cc\L	.
16D'/JJ	.	.	16d\JJ	.	16d/JJ	.	16dd\JJ	.	.	.	.	.	.	.	.	.	.	.	.	.	.	.	16D/JJ	.	16d/JJ	.	16dd\JJ	.	16dd\JJ	.
16E-'\LL	.	.	16e-\LL	.	16e-/LL	.	16ee-\LL	.	4r	.	4r	.	4r	.	4r	.	4r	4r	4r	.	4r	.	16E-\LL	.	16e-/LL	.	16ee-\LL	.	16ee-\LL	.
16F'\	.	.	16f\	.	16f/	.	16ff\	.	.	.	.	.	.	.	.	.	.	.	.	.	.	.	16F\	.	16f/	.	16ff\	.	16ff\	.
16G'\	.	.	16g\	.	16g/	.	16gg\	.	.	.	.	.	.	.	.	.	.	.	.	.	.	.	16G\	.	16g/	.	16gg\	.	16gg\	.
16A'\JJ	.	.	16a\JJ	.	16a/JJ	.	16aa\JJ	.	.	.	.	.	.	.	.	.	.	.	.	.	.	.	16A\JJ	.	16a/JJ	.	16aa\JJ	.	16aa\JJ	.
*	*	*	*tremolo	*	*	*	*	*	*	*	*	*	*	*	*	*	*tremolo	*	*tremolo	*	*tremolo	*	*tremolo	*	*tremolo	*	*tremolo	*	*tremolo	*
!	!	!	!LO:N:TREM:vis=2.	!	!	!	!	!	!	!	!	!	!	!	!	!	!LO:TX:b:t=....	!	!	!	!LO:TX:a:t=....	!	!LO:TX:a:t=....	!	!LO:TX:a:t=....	!	!LO:TX:a:t=....	!	!LO:TX:a:t=....	!
8B-'\L	.	.	8b-\L	.	8b-\L	.	8bb-\L	.	2r	.	2r	.	2r	.	2r	.	8BB-'/L	8b-\L	8B-/L	.	8b-'\L	.	8B-'\L	.	8b-'\L	.	8bb-'\L	.	8bb-'\L	.
8B-'\	.	.	8b-\	.	8b-\	.	8bb-\	.	.	.	.	.	.	.	.	.	8BB-'/	8b-\	8B-/	.	8b-'\	.	8B-'\	.	8b-'\	.	8bb-'\	.	8bb-'\	.
8B-'\	.	.	8b-\	.	8b-\	.	8bb-\	.	.	.	.	.	.	.	.	.	8BB-'/	8b-\	8B-/	.	8b-'\	.	8B-'\	.	8b-'\	.	8bb-'\	.	8bb-'\	.
8B-'\J	.	.	8b-\J	.	8b-\J	.	8bb-\J	.	.	.	.	.	.	.	.	.	8BB-'/J	8b-\J	8B-/J	.	8b-'\J	.	8B-'\J	.	8b-'\J	.	8bb-'\J	.	8bb-'\J	.
*	*	*	*Xtremolo	*	*	*	*	*	*	*	*	*	*	*	*	*	*Xtremolo	*	*Xtremolo	*	*Xtremolo	*	*Xtremolo	*	*Xtremolo	*	*Xtremolo	*	*Xtremolo	*
!	!	!	!	!	!	!	!	!	!	!	!	!	!	!	!	!	!	!	!	!	!	!	!	!	!LO:LB:g=original	!	!	!	!	!
=28	=28	=28	=28	=28	=28	=28	=28	=28	=28	=28	=28	=28	=28	=28	=28	=28	=28	=28	=28	=28	=28	=28	=28	=28	=28	=28	=28	=28	=28	=28
!	!	!	!	!	!	!	!	!	!LO:TX:a:t=3.	!	!LO:TX:a:t=3	!	!LO:TX:a:t=3.	!	!LO:TX:a:t=3.	!	!	!	!	!	!	!	!	!	!	!	!	!	!	!
8B-'\L	.	.	8b-\L	.	8b-\L	.	8bb-\L	.	0r	.	0r	.	0r	.	0r	.	4BB-/	4b-\	4B-/	.	4b-\	.	8B-\L	.	8b-\L	.	8bb-\L	.	8bb-\L	.
8c'\	.	.	8cc\	.	8cc\	.	8ccc\	.	.	.	.	.	.	.	.	.	.	.	.	.	.	.	8c\	.	8cc\	.	8ccc\	.	8ccc\	.
8d'\	.	.	8dd\	.	8dd\	.	8ddd\	.	.	.	.	.	.	.	.	.	4r	4r	4r	.	4r	.	8d\	.	8dd\	.	8ddd\	.	8ddd\	.
8c'\J	.	.	8cc\J	.	8cc\J	.	8ccc\J	.	.	.	.	.	.	.	.	.	.	.	.	.	.	.	8c\J	.	8cc\J	.	8ccc\J	.	8ccc\J	.
!	!	!	!	!	!	!	!LO:LB:g=original	!	!	!	!	!	!	!	!	!	!	!	!	!	!	!	!	!	!	!	!	!	!	!
8B-'\L	.	.	8b-\L	.	8b-\L	.	8bb-\L	.	.	.	.	.	.	.	.	.	2r	2r	2r	.	2r	.	8B-\L	.	8b-\L	.	8bb-\L	.	8bb-\L	.
8A'\	.	.	8a\	.	8a\	.	8aa\	.	.	.	.	.	.	.	.	.	.	.	.	.	.	.	8A\	.	8a\	.	8aa\	.	8aa\	.
8G'\	.	.	8g\	.	8g\	.	8gg\	.	.	.	.	.	.	.	.	.	.	.	.	.	.	.	8G\	.	8g\	.	8gg\	.	8gg\	.
8F'\J	.	.	8f\J	.	8f\J	.	8ff\J	.	.	.	.	.	.	.	.	.	.	.	.	.	.	.	8F\J	.	8f\J	.	8ff\J	.	8ff\J	.
!	!	!	!	!	!	!	!	!	!	!	!	!	!	!	!	!	!LO:LB:g=original	!	!LO:LB:g=original	!	!	!	!LO:LB:g=original	!	!	!	!	!	!LO:LB:g=original	!
=29	=29	=29	=29	=29	=29	=29	=29	=29	=29	=29	=29	=29	=29	=29	=29	=29	=29	=29	=29	=29	=29	=29	=29	=29	=29	=29	=29	=29	=29	=29
!	!	!	!	!	!	!	!	!	!	!	!	!	!	!	!	!	!LO:TX:a:t=1.	!	!LO:TX:a:t=1	!	!	!	!	!	!	!	!	!	!	!
8E-'\L	.	.	8e-\L	.	8e-/L	.	8ee-\L	.	.	.	.	.	.	.	.	.	1r	1r	1r	.	1r	.	8E-\L	.	8e-/L	.	8ee-\L	.	8eee-\L	.
8D'\	.	.	8d\	.	8d/	.	8dd\	.	.	.	.	.	.	.	.	.	.	.	.	.	.	.	8D\	.	8d/	.	8dd\	.	8ddd\	.
8C'\	.	.	8c\	.	8c/	.	8cc\	.	.	.	.	.	.	.	.	.	.	.	.	.	.	.	8C\	.	8c/	.	8cc\	.	8ccc\	.
8BB-'\J	.	.	8B-\J	.	8B-/J	.	8b-\J	.	.	.	.	.	.	.	.	.	.	.	.	.	.	.	8BB-\J	.	8B-/J	.	8b-\J	.	8bb-\J	.
!	!	!	!LO:LB:g=original	!	!	!	!	!	!	!	!	!	!	!	!	!	!	!	!	!	!	!	!	!	!	!	!	!	!	!
8AA'\L	.	.	8A\L	.	8A/L	.	8a\L	.	.	.	.	.	.	.	.	.	.	.	.	.	.	.	8AA/L	.	8A/L	.	8a\L	.	8aa\L	.
8BB-'\	.	.	8B-\	.	8B-/	.	8b-\	.	.	.	.	.	.	.	.	.	.	.	.	.	.	.	8BB-/	.	8B-/	.	8b-\	.	8bb-\	.
8C'\	.	.	8c\	.	8c/	.	8cc\	.	.	.	.	.	.	.	.	.	.	.	.	.	.	.	8C/	.	8c/	.	8cc\	.	8ccc\	.
8D'\J	.	.	8d\J	.	8d/J	.	8dd\J	.	.	.	.	.	.	.	.	.	.	.	.	.	.	.	8D/J	.	8d/J	.	8dd\J	.	8ddd\J	.
=30	=30	=30	=30	=30	=30	=30	=30	=30	=30	=30	=30	=30	=30	=30	=30	=30	=30	=30	=30	=30	=30	=30	=30	=30	=30	=30	=30	=30	=30	=30
2E-\	.	.	2e-\	.	2e-/	.	2ee-\	.	1r	.	1r	.	1r	.	1r	.	2FF/	2f/	2f/	.	2cc\	.	2E-\	.	2e-/	.	2ee-\	.	2eee-\	.
2r	.	.	2r	.	2r	.	2r	.	.	.	.	.	.	.	.	.	2r	2r	2r	.	2r	.	2r	.	2r	.	2r	.	2r	.
!LO:LB:g=original	!	!	!	!	!	!	!	!	!LO:LB:g=original	!	!	!	!	!	!	!	!	!	!	!	!	!	!	!	!	!	!	!	!	!
=31	=31	=31	=31	=31	=31	=31	=31	=31	=31	=31	=31	=31	=31	=31	=31	=31	=31	=31	=31	=31	=31	=31	=31	=31	=31	=31	=31	=31	=31	=31
!LO:TX:a:t=3.	!	!	!LO:TX:a:t=3	!	!LO:TX:a:t=3.	!	!LO:TX:a:t=3.	!	!	!	!	!	!	!	!LO:SIC:s=2cc	!	!LO:TX:a:t=3.	!LO:TX:a:t=3	!	!	!	!	!	!LO:DY:t=pia&colon;	!	!LO:DY:t=p.	!	!	!	!
0r	.	.	0r	.	0r	.	0r	.	2F\	Do-	2f\	Do-	2a\	Do-	2dd\	do-	0r	0r	2f/	p	2cc\	.	8F\L	p	2a\	p	2cc\	p	8r	.
.	.	.	.	.	.	.	.	.	.	.	.	.	.	.	.	.	.	.	.	.	.	.	8G\	.	.	.	.	.	16ff\LL	.
.	.	.	.	.	.	.	.	.	.	.	.	.	.	.	.	.	.	.	.	.	.	.	.	.	.	.	.	.	16een\JJ	.
.	.	.	.	.	.	.	.	.	.	.	.	.	.	.	.	.	.	.	.	.	.	.	8A\	.	.	.	.	.	8ff\L	.
.	.	.	.	.	.	.	.	.	.	.	.	.	.	.	.	.	.	.	.	.	.	.	8B-\J	.	.	.	.	.	8gg\	.
.	.	.	.	.	.	.	.	.	2F#X\	-na	2f\	-na	2a\	-na	2dd\	-na	.	.	2f/	.	2cc\	.	8c\L	.	2a\	.	2cc\	.	8ccc\	.
.	.	.	.	.	.	.	.	.	.	.	.	.	.	.	.	.	.	.	.	.	.	.	8d\	.	.	.	.	.	8aa\J	.
.	.	.	.	.	.	.	.	.	.	.	.	.	.	.	.	.	.	.	.	.	.	.	8e-\	.	.	.	.	.	4fff\	.
.	.	.	.	.	.	.	.	.	.	.	.	.	.	.	.	.	.	.	.	.	.	.	8c\J	.	.	.	.	.	.	.
=32	=32	=32	=32	=32	=32	=32	=32	=32	=32	=32	=32	=32	=32	=32	=32	=32	=32	=32	=32	=32	=32	=32	=32	=32	=32	=32	=32	=32	=32	=32
.	.	.	.	.	.	.	.	.	2G\	no-	2f\	no-	2b-\	no-	2dd\	no-	.	.	2b-\	.	2dd\	.	8B-\L	.	2b-\	.	2dd\	.	8ddd\L	.
.	.	.	.	.	.	.	.	.	.	.	.	.	.	.	.	.	.	.	.	.	.	.	8A\	.	.	.	.	.	8ccc\	.
.	.	.	.	.	.	.	.	.	.	.	.	.	.	.	.	.	.	.	.	.	.	.	8G\	.	.	.	.	.	8bb-\	.
.	.	.	.	.	.	.	.	.	.	.	.	.	.	.	.	.	.	.	.	.	.	.	8F\J	.	.	.	.	.	8aa\J	.
.	.	.	.	.	.	.	.	.	2E-\	-bis	4e-\	-bis	4cc\	-bis	4ee-\	-bis	.	.	2B-/	.	2b-\	.	8E-/L	.	4cc\	.	4ee-\	.	8gg\L	.
.	.	.	.	.	.	.	.	.	.	.	.	.	.	.	.	.	.	.	.	.	.	.	8D/	.	.	.	.	.	8ccc\	.
.	.	.	.	.	.	.	.	.	.	.	4g\	.	4ee-\	.	4gg\	.	.	.	.	.	.	.	8C/	.	4ee-\	.	4gg\	.	8eee-X\	.
.	.	.	.	.	.	.	.	.	.	.	.	.	.	.	.	.	.	.	.	.	.	.	8BB-/J	.	.	.	.	.	8ccc\J	.
!	!	!	!	!	!	!	!	!	!	!	!LO:LB:g=original	!	!	!	!	!	!	!	!	!	!	!	!	!	!	!	!LO:LB:g=original	!	!	!
=33	=33	=33	=33	=33	=33	=33	=33	=33	=33	=33	=33	=33	=33	=33	=33	=33	=33	=33	=33	=33	=33	=33	=33	=33	=33	=33	=33	=33	=33	=33
1r	.	.	1r	.	1r	.	1r	.	1Fn	pa-	1f	pa-	4.dd\	Do-	4.ff\	no-	1r	1r	2d/	.	2b-\	.	8E-\L	.	4.dd\	.	4.ff\	.	8bb-\L	.
.	.	.	.	.	.	.	.	.	.	.	.	.	.	.	.	.	.	.	.	.	.	.	8D\	.	.	.	.	.	8ddd\	.
.	.	.	.	.	.	.	.	.	.	.	.	.	.	.	.	.	.	.	.	.	.	.	8E-\	.	.	.	.	.	8bb-\	.
.	.	.	.	.	.	.	.	.	.	.	.	.	8b-\	-na	8dd\	-bis	.	.	.	.	.	.	8C\J	.	8b-\	.	8dd\	.	8ddd\J	.
!	!	!	!	!	!	!	!	!	!	!	!	!	!	!	!	!	!	!	!	!	!	!	!LO:TX:t=P:problem=mixed beam	!	!	!	!	!	!	!
.	.	.	.	.	.	.	.	.	.	.	.	.	8dd\L	no-	8ff\L	.	.	.	2f/	.	2cc\	.	8F\L	.	8dd\L	.	8ff\L	.	8ff\L	.
.	.	.	.	.	.	.	.	.	.	.	.	.	8cc\	.	8ee-\	.	.	.	.	.	.	.	8En\	.	8cc\	.	8ee-\	.	8aa\	.
.	.	.	.	.	.	.	.	.	.	.	.	.	8b-\	-bis	8dd\	pa-	.	.	.	.	.	.	8F\	.	8b-\	.	8dd\	.	8ff\	.
.	.	.	.	.	.	.	.	.	.	.	.	.	8a\J	.	8cc\J	.	.	.	.	.	.	.	8FF/J	.	8a\J	.	8cc\J	.	8aa\J	.
!	!	!	!	!	!	!	!	!	!	!	!	!	!LO:LB:g=original	!	!	!	!	!	!	!	!LO:LB:g=original	!	!LO:LB:g=original	!	!LO:LB:g=original	!	!	!	!	!
=34	=34	=34	=34	=34	=34	=34	=34	=34	=34	=34	=34	=34	=34	=34	=34	=34	=34	=34	=34	=34	=34	=34	=34	=34	=34	=34	=34	=34	=34	=34
!	!	!	!	!	!	!	!LO:TUP:a:problem=klamra łukowa	!	!	!	!	!	!	!	!	!	!	!	!	!	!	!	!	!LO:DY:t=for&colon;	!	!LO:DY:rj	!	!	!	!
4B-\	7	.	4b-\	.	4dd 4f/	.	12bb-\L	.	4BB-/	-cem	4f\	-cem	4b-\	-bis	4b-\	-cem	4r	4r	4b-\	.	4dd\	.	4BB-/	f	4b-\	f	4dd\	.	4bb-\	.
.	.	.	.	.	.	.	12ccc\	.	.	.	.	.	.	.	.	.	.	.	.	.	.	.	.	.	.	.	.	.	.	.
.	.	.	.	.	.	.	12ddd\J	.	.	.	.	.	.	.	.	.	.	.	.	.	.	.	.	.	.	.	.	.	.	.
!	!	!	!	!	!	!	!LO:TUP:a:problem=klamra łukowa	!	!	!	!	!	!	!	!	!	!	!	!	!	!	!	!	!	!	!	!	!	!	!
4B-\	.	.	4b-\	.	4dd 4f/	.	12ddd\L	.	4r	.	4r	.	4r	.	4r	.	4BB-/	4b-\	8b-\L	.	8dd\L	.	8d\L	.	8b-\L	.	8dd\L	.	8ddd\L	.
.	.	.	.	.	.	.	12ccc\	.	.	.	.	.	.	.	.	.	.	.	.	.	.	.	.	.	.	.	.	.	.	.
.	.	.	.	.	.	.	.	.	.	.	.	.	.	.	.	.	.	.	8b-\J	.	8dd\J	.	8d\J	.	8b-\J	.	8dd\J	.	8ddd\J	.
.	.	.	.	.	.	.	12bb-\J	.	.	.	.	.	.	.	.	.	.	.	.	.	.	.	.	.	.	.	.	.	.	.
!	!	!	!	!	!	!	!LO:TUP:a:problem=klamra łukowa	!	!	!	!	!	!	!	!	!	!	!	!	!	!	!	!	!	!	!	!	!	!	!
4F\	5 3	.	4a\	.	4cc 4f/	.	12ff\L	.	4r	.	4r	.	4r	.	4r	.	4r	4r	4f/	.	4cc\	.	4c\	.	4a\	.	4cc\	.	4ccc\	.
.	.	.	.	.	.	.	12gg\	.	.	.	.	.	.	.	.	.	.	.	.	.	.	.	.	.	.	.	.	.	.	.
.	.	.	.	.	.	.	12aa\J	.	.	.	.	.	.	.	.	.	.	.	.	.	.	.	.	.	.	.	.	.	.	.
*	*	*	*	*	*	*	*	*	*	*ij	*	*	*	*	*	*	*	*	*	*	*	*	*	*	*	*	*	*	*	*
!	!	!	!	!	!	!	!LO:TUP:a:problem=klamra łukowa	!	!	!	!	!	!	!	!	!	!	!	!	!	!	!	!	!	!	!	!	!	!	!
4F\	.	.	4a\	.	4cc 4f/	.	12aa\L	.	8F\	Do-	8f\	Do-	8a\	Do-	8cc\L	do-	4FF/	4f/	8f/L	.	8cc\L	.	8c\L	.	8a\L	.	8cc\L	.	8ccc\L	.
.	.	.	.	.	.	.	12gg\	.	.	.	.	.	.	.	.	.	.	.	.	.	.	.	.	.	.	.	.	.	.	.
.	.	.	.	.	.	.	.	.	8F\	-na	8f\	-na	8a\	-na	8cc\J	-na	.	.	8f/J	.	8cc\J	.	8c\J	.	8a\J	.	8cc\J	.	8ccc\J	.
.	.	.	.	.	.	.	12ff\J	.	.	.	.	.	.	.	.	.	.	.	.	.	.	.	.	.	.	.	.	.	.	.
!	!	!	!	!	!	!	!	!	!	!	!	!	!	!	!LO:LB:g=original	!	!	!LO:LB:g=original	!	!	!	!	!	!	!	!	!	!	!LO:LB:g=original	!
=35	=35	=35	=35	=35	=35	=35	=35	=35	=35	=35	=35	=35	=35	=35	=35	=35	=35	=35	=35	=35	=35	=35	=35	=35	=35	=35	=35	=35	=35	=35
!	!	!	!	!	!	!	!LO:TUP:a:problem=klamra łukowa	!	!	!	!	!	!	!	!	!	!	!	!LO:TX:t=P:problem=takt nr 35 zapisany repetycją	!	!	!	!	!	!	!	!	!	!	!
!	!	!	!	!	!	!	!LO:TX:t=P:problem=takt nr 35 zapisany repetycją	!	!	!	!	!	!	!	!	!	!	!	!	!	!	!	!	!	!	!	!	!	!	!
4B-\	7	.	4b-\	.	4dd 4f/	.	12bb-\Lyy	.	4.B-\	no-	4.f\	no-	4.b-\	no-	4.dd\	no-	4r	4r	4b-\yy	.	4dd\	.	4d\	.	4b-\	.	4dd\	.	4ddd\	.
.	.	.	.	.	.	.	12ccc\yy	.	.	.	.	.	.	.	.	.	.	.	.	.	.	.	.	.	.	.	.	.	.	.
.	.	.	.	.	.	.	12ddd\Jyy	.	.	.	.	.	.	.	.	.	.	.	.	.	.	.	.	.	.	.	.	.	.	.
!	!	!	!	!	!	!	!LO:TUP:a:problem=klamra łukowa	!	!	!	!	!	!	!	!	!	!	!	!	!	!	!	!	!	!	!	!	!	!	!
4B-\	.	.	4b-\	.	4dd 4f/	.	12ddd\Lyy	.	.	.	.	.	.	.	.	.	4BB-/	4b-\	8b-\Lyy	.	8dd\L	.	8d\L	.	8b-\L	.	8dd\L	.	8ddd\L	.
.	.	.	.	.	.	.	12ccc\yy	.	.	.	.	.	.	.	.	.	.	.	.	.	.	.	.	.	.	.	.	.	.	.
.	.	.	.	.	.	.	.	.	8B-\	-bis	8f\	-bis	8b-\	-bis	8dd\	-bis	.	.	8b-\Jyy	.	8dd\J	.	8d\J	.	8b-\J	.	8dd\J	.	8ddd\J	.
.	.	.	.	.	.	.	12bb-\Jyy	.	.	.	.	.	.	.	.	.	.	.	.	.	.	.	.	.	.	.	.	.	.	.
!	!	!	!	!	!	!	!LO:TUP:a:problem=klamra łukowa	!	!	!	!	!	!	!	!	!	!	!	!	!	!	!	!	!	!	!	!	!	!	!
4F\	5 3	.	4a\	.	4cc 4f/	.	12ff\Lyy	.	2F\	pa-	2f\	pa-	2a\	Pa-	2cc\	pa-	4r	4r	4f/yy	.	4cc\	.	4c\	.	4a\	.	4cc\	.	4ccc\	.
.	.	.	.	.	.	.	12gg\yy	.	.	.	.	.	.	.	.	.	.	.	.	.	.	.	.	.	.	.	.	.	.	.
.	.	.	.	.	.	.	12aa\Jyy	.	.	.	.	.	.	.	.	.	.	.	.	.	.	.	.	.	.	.	.	.	.	.
!	!	!	!	!	!	!	!LO:TUP:a:problem=klamra łukowa	!	!	!	!	!	!	!	!	!	!	!	!	!	!	!	!	!	!	!	!	!	!	!
4F\	.	.	4a\	.	4cc 4f/	.	12aa\Lyy	.	.	.	.	.	.	.	.	.	4FF/	4f/	8f/Lyy	.	8cc\L	.	8c\L	.	8a\L	.	8cc\L	.	8ccc\L	.
.	.	.	.	.	.	.	12gg\yy	.	.	.	.	.	.	.	.	.	.	.	.	.	.	.	.	.	.	.	.	.	.	.
.	.	.	.	.	.	.	.	.	.	.	.	.	.	.	.	.	.	.	8f/Jyy	.	8cc\J	.	8c\J	.	8a\J	.	8cc\J	.	8ccc\J	.
.	.	.	.	.	.	.	12ff\Jyy	.	.	.	.	.	.	.	.	.	.	.	.	.	.	.	.	.	.	.	.	.	.	.
=36	=36	=36	=36	=36	=36	=36	=36	=36	=36	=36	=36	=36	=36	=36	=36	=36	=36	=36	=36	=36	=36	=36	=36	=36	=36	=36	=36	=36	=36	=36
!	!	!	!	!	!LO:TX:t=P:problem=takty nr 36-37 zapisane repetycją	!	!LO:TUP:a:problem=klamra łukowa	!	!	!	!	!	!	!	!	!	!	!	!	!	!	!	!	!	!	!	!	!	!	!
4B-\	3	.	4b-\	.	4ddyy 4f/yy	.	12bb-\L	.	4BB-/	-cem	4f\	-cem	4b-\	-cem	4b-\	-cem	4r	4r	4b-\	.	4dd\	.	4d\	.	4b-\	.	4dd\	.	4ddd\	.
*	*	*	*	*	*	*	*	*	*	*Xij	*	*	*	*	*	*	*	*	*	*	*	*	*	*	*	*	*	*	*	*
.	.	.	.	.	.	.	12ccc\	.	.	.	.	.	.	.	.	.	.	.	.	.	.	.	.	.	.	.	.	.	.	.
.	.	.	.	.	.	.	12ddd\J	.	.	.	.	.	.	.	.	.	.	.	.	.	.	.	.	.	.	.	.	.	.	.
!	!	!	!	!	!	!	!LO:TUP:a:problem=klamra łukowa	!	!	!	!	!	!	!	!	!	!	!	!	!	!	!	!	!	!	!	!	!	!	!
4B-\	.	.	4b-\	.	4ddyy 4f/yy	.	12ddd\L	.	4r	.	4r	.	4r	.	4r	.	4BB-/	4b-\	8b-\L	.	8dd\L	.	8d\L	.	8b-\L	.	8dd\L	.	8ddd\L	.
.	.	.	.	.	.	.	12ccc\	.	.	.	.	.	.	.	.	.	.	.	.	.	.	.	.	.	.	.	.	.	.	.
.	.	.	.	.	.	.	.	.	.	.	.	.	.	.	.	.	.	.	8b-\J	.	8dd\J	.	8d\J	.	8b-\J	.	8dd\J	.	8ddd\J	.
.	.	.	.	.	.	.	12bb-\J	.	.	.	.	.	.	.	.	.	.	.	.	.	.	.	.	.	.	.	.	.	.	.
!	!	!	!	!	!	!	!LO:TUP:a:problem=klamra łukowa	!	!	!	!	!	!	!	!	!	!	!	!	!	!	!	!	!	!	!	!	!	!	!
4F\	5 3	.	4a\	.	4ccyy 4f/yy	.	12ff\L	.	4r	.	4r	.	4r	.	4r	.	4r	4r	4f/	.	4cc\	.	4c\	.	4a\	.	4cc\	.	4ccc\	.
.	.	.	.	.	.	.	12gg\	.	.	.	.	.	.	.	.	.	.	.	.	.	.	.	.	.	.	.	.	.	.	.
.	.	.	.	.	.	.	12aa\J	.	.	.	.	.	.	.	.	.	.	.	.	.	.	.	.	.	.	.	.	.	.	.
!	!	!	!	!	!	!	!LO:TUP:a:problem=klamra łukowa	!	!	!	!	!	!	!	!	!	!	!	!	!	!	!	!	!	!	!	!	!	!	!
4F\	.	.	4a\	.	4ccyy 4f/yy	.	12aa\L	.	8F\	Do-	8f\	Do-	8a\	Do-	8cc\L	do-	4FF/	4f/	8f/L	.	8cc\L	.	8c\L	.	8a\L	.	8cc\L	.	8ccc\L	.
.	.	.	.	.	.	.	12gg\	.	.	.	.	.	.	.	.	.	.	.	.	.	.	.	.	.	.	.	.	.	.	.
.	.	.	.	.	.	.	.	.	8F\	-na	8f\	-na	8a\	-na	8cc\J	-na	.	.	8f/J	.	8cc\J	.	8c\J	.	8a\J	.	8cc\J	.	8ccc\J	.
.	.	.	.	.	.	.	12ff\J	.	.	.	.	.	.	.	.	.	.	.	.	.	.	.	.	.	.	.	.	.	.	.
!	!	!	!	!	!	!	!	!	!LO:LB:g=original	!	!	!	!	!	!	!	!	!	!	!	!	!	!	!	!	!	!	!	!	!
=37	=37	=37	=37	=37	=37	=37	=37	=37	=37	=37	=37	=37	=37	=37	=37	=37	=37	=37	=37	=37	=37	=37	=37	=37	=37	=37	=37	=37	=37	=37
!	!	!	!	!	!	!	!LO:TUP:a:problem=klamra łukowa	!	!	!	!	!	!	!	!	!	!	!	!LO:TX:t=P:problem=takt nr 37 zapisany repetycją	!	!	!	!	!	!	!	!	!	!	!
!	!	!	!	!	!	!	!LO:TX:t=P:problem=takt nr 37 zapisany repetycją	!	!	!	!	!	!	!	!	!	!	!	!	!	!	!	!	!	!	!	!	!	!	!
4B-\	3	.	4b-\	.	4ddyy 4f/yy	.	12bb-\Lyy	.	4.B-\	no-	4.f\	no-	4.b-\	no-	4.dd\	no-	4r	4r	4b-\yy	.	4dd\	.	4d\	.	4b-\	.	4dd\	.	4ddd\	.
.	.	.	.	.	.	.	12ccc\yy	.	.	.	.	.	.	.	.	.	.	.	.	.	.	.	.	.	.	.	.	.	.	.
.	.	.	.	.	.	.	12ddd\Jyy	.	.	.	.	.	.	.	.	.	.	.	.	.	.	.	.	.	.	.	.	.	.	.
!	!	!	!	!	!	!	!LO:TUP:a:problem=klamra łukowa	!	!	!	!	!	!	!	!	!	!	!	!	!	!	!	!	!	!	!	!	!	!	!
4B-\	.	.	4b-\	.	4ddyy 4f/yy	.	12ddd\Lyy	.	.	.	.	.	.	.	.	.	4BB-/	4b-\	8b-\Lyy	.	8dd\L	.	8d\L	.	8b-\L	.	8dd\L	.	8ddd\L	.
.	.	.	.	.	.	.	12ccc\yy	.	.	.	.	.	.	.	.	.	.	.	.	.	.	.	.	.	.	.	.	.	.	.
.	.	.	.	.	.	.	.	.	8B-\	-bis	8f\	-bis	8b-\	-bis	8dd\	-bis	.	.	8b-\Jy	.	8dd\J	.	8d\J	.	8b-\J	.	8dd\J	.	8ddd\J	.
.	.	.	.	.	.	.	12bb-\Jyy	.	.	.	.	.	.	.	.	.	.	.	.	.	.	.	.	.	.	.	.	.	.	.
!	!	!	!	!	!	!	!LO:TUP:a:problem=klamra łukowa	!	!	!	!	!	!	!	!	!	!	!	!	!	!	!	!	!	!	!	!	!	!	!
4F\	5 3	.	4a\	.	4ccyy 4f/yy	.	12ff\Lyy	.	2F\	pa-	2f\	pa-	2a\	Pa-	2cc\	pa-	4r	4r	4f/yy	.	4cc\	.	4c\	.	4a\	.	4cc\	.	4ccc\	.
.	.	.	.	.	.	.	12gg\yy	.	.	.	.	.	.	.	.	.	.	.	.	.	.	.	.	.	.	.	.	.	.	.
.	.	.	.	.	.	.	12aa\Jyy	.	.	.	.	.	.	.	.	.	.	.	.	.	.	.	.	.	.	.	.	.	.	.
!	!	!	!	!	!	!	!LO:TUP:a:problem=klamra łukowa	!	!	!	!	!	!	!	!	!	!	!	!	!	!	!	!	!	!	!	!	!	!	!
4F\	.	.	4a\	.	4ccyy 4f/yy	.	12aa\Lyy	.	.	.	.	.	.	.	.	.	4FF/	4f/	8f/Lyy	.	8cc\L	.	8c\L	.	8a\L	.	8cc\L	.	8ccc\L	.
.	.	.	.	.	.	.	12gg\yy	.	.	.	.	.	.	.	.	.	.	.	.	.	.	.	.	.	.	.	.	.	.	.
.	.	.	.	.	.	.	.	.	.	.	.	.	.	.	.	.	.	.	8f/Jyy	.	8cc\J	.	8c\J	.	8a\J	.	8cc\J	.	8ccc\J	.
.	.	.	.	.	.	.	12ff\Jyy	.	.	.	.	.	.	.	.	.	.	.	.	.	.	.	.	.	.	.	.	.	.	.
!	!	!	!	!	!	!	!	!	!	!	!	!	!	!	!	!	!	!	!	!	!	!	!LO:LB:g=original	!	!LO:LB:g=original	!	!	!	!	!
=38	=38	=38	=38	=38	=38	=38	=38	=38	=38	=38	=38	=38	=38	=38	=38	=38	=38	=38	=38	=38	=38	=38	=38	=38	=38	=38	=38	=38	=38	=38
4B-\	.	.	4b-\	.	4dd 4f/	.	4bb-\	.	4BB-/	-cem	4f\	-cem	4b-\	-cem	4dd\	-cem	4BB-/	4b-\	4d/	.	4b-\	.	4d\	.	4b-\	.	4dd\	.	4bb-\	.
!	!	!	!	!	!	!LO:DY:t=p.	!	!	!	!	!	!	!	!	!	!	!	!	!	!	!	!	!	!	!	!	!	!	!	!
4r	.	.	4r	.	4r	p	4r	.	4r	.	4r	.	4r	.	4r	.	4r	4r	4r	.	4b-\	.	4r	.	4r	.	4r	.	4r	.
!	!	!	!	!	!	!	!LO:TUP:a:problem=klamra łukowa	!	!	!	!	!	!	!	!	!	!	!	!	!	!	!	!	!	!	!	!	!	!	!
4E-\	.	.	4B-/	.	12b-\L	.	12ee-\L	.	4.E-\	Do-	4.e-\	Do-	4.b-\	Do-	4.gg\	do-	2r	2r	4r	.	4r	.	4r	.	4r	.	4r	.	4r	.
.	.	.	.	.	12b-\	.	12ff\	.	.	.	.	.	.	.	.	.	.	.	.	.	.	.	.	.	.	.	.	.	.	.
.	.	.	.	.	12b-\J	.	12gg\J	.	.	.	.	.	.	.	.	.	.	.	.	.	.	.	.	.	.	.	.	.	.	.
*	*	*	*	*	*tremolo	*	*	*	*	*	*	*	*	*	*	*	*	*	*	*	*	*	*	*	*	*	*	*	*	*
!	!	!	!	!	!LO:TX:t=P:problem=złe wyświetlanie wartości rytmicznej tremolo	!	!	!	!	!	!	!	!	!	!	!	!	!	!	!	!	!	!	!	!	!	!	!	!	!
!	!	!	!	!	!LO:N:TREM:vis=4.	!	!LO:TUP:a:problem=klamra łukowa	!	!	!	!	!	!	!	!	!	!	!	!	!	!	!	!	!	!	!LO:DY:t=pi	!	!	!	!
4E-\	.	.	4B-/	.	12b-\L	.	12ee-\L	.	.	.	.	.	.	.	.	.	.	.	4B-/	.	4b-\	.	4g\	.	4ee-\	p	4gg\	.	4bb-\	.
.	.	.	.	.	12b-\	.	12ff\	.	.	.	.	.	.	.	.	.	.	.	.	.	.	.	.	.	.	.	.	.	.	.
.	.	.	.	.	.	.	.	.	8E-\	-na	8e-\	-na	8b-\	-na	8gg\	-na	.	.	.	.	.	.	.	.	.	.	.	.	.	.
.	.	.	.	.	12b-\J	.	12gg\J	.	.	.	.	.	.	.	.	.	.	.	.	.	.	.	.	.	.	.	.	.	.	.
!LO:LB:g=original	!	!	!LO:LB:g=original	!	!	!	!LO:LB:g=original	!	!	!	!	!	!LO:LB:g=original	!	!	!	!	!	!LO:LB:g=original	!	!	!	!	!	!	!	!	!	!	!
=39	=39	=39	=39	=39	=39	=39	=39	=39	=39	=39	=39	=39	=39	=39	=39	=39	=39	=39	=39	=39	=39	=39	=39	=39	=39	=39	=39	=39	=39	=39
*	*	*	*	*	*	*	*Xtuplet	*	*	*	*	*	*	*	*	*	*	*	*	*	*	*	*	*	*	*	*	*	*	*
!	!	!	!	!LO:DY:t=p&colon;	!LO:N:TREM:vis=4.	!	!	!	!	!	!	!	!	!	!	!	!LO:TX:a:t=3.	!	!	!	!	!	!	!	!	!	!	!LO:DY:rj	!	!
4BB-/	5	.	4B-/	p	12b-\L	.	12ff\L	.	4BB-/	no-	4d\	no-	4b-\	no-	8ff\L	no-	0r	0r	4r	.	4r	.	4r	.	4r	.	4r	p	4r	.
.	.	.	.	.	12b-\	.	12dd\	.	.	.	.	.	.	.	.	.	.	.	.	.	.	.	.	.	.	.	.	.	.	.
.	.	.	.	.	.	.	.	.	.	.	.	.	.	.	8dd\J	.	.	.	.	.	.	.	.	.	.	.	.	.	.	.
.	.	.	.	.	12b-\J	.	12b-\J	.	.	.	.	.	.	.	.	.	.	.	.	.	.	.	.	.	.	.	.	.	.	.
!	!	!	!	!	!LO:N:TREM:vis=4.	!	!	!	!	!	!	!	!	!	!	!	!	!	!	!	!	!	!	!	!	!	!	!	!	!
4BB-/	.	.	4B-/	.	12b-\L	.	12ff\L	.	4BB-/	-bis	4d\	-bis	4b-\	-bis	4b-\	-bis	.	.	4B-/	.	4b-\	.	4f\	.	4dd\	.	4ff\	.	4bb-\	.
.	.	.	.	.	12b-\	.	12dd\	.	.	.	.	.	.	.	.	.	.	.	.	.	.	.	.	.	.	.	.	.	.	.
.	.	.	.	.	12b-\J	.	12b-\J	.	.	.	.	.	.	.	.	.	.	.	.	.	.	.	.	.	.	.	.	.	.	.
*	*	*	*	*	*	*	*	*	*	*ij	*	*	*	*	*	*	*	*	*	*	*	*	*	*	*	*	*	*	*	*
!	!	!	!	!	!LO:N:TREM:vis=4.	!	!	!	!	!	!	!	!	!	!	!	!	!	!	!	!	!	!	!	!	!	!	!	!	!
4E-\	3	.	4B-/	.	12b-\L	.	12ee-\L	.	4.E-\	Do-	4e-\	Do-	4.b-\	do-	4.gg\	do-	.	.	4r	.	4r	.	4r	.	4r	.	4r	.	4r	.
.	.	.	.	.	12b-\	.	12ff\	.	.	.	.	.	.	.	.	.	.	.	.	.	.	.	.	.	.	.	.	.	.	.
.	.	.	.	.	12b-\J	.	12gg\J	.	.	.	.	.	.	.	.	.	.	.	.	.	.	.	.	.	.	.	.	.	.	.
!	!	!	!	!	!LO:N:TREM:vis=4.	!	!	!	!	!	!	!	!	!	!	!	!	!	!	!	!	!	!	!	!	!	!	!	!	!
4E-\	.	.	4B-/	.	12b-\L	.	12ee-\L	.	.	.	8ryy	.	.	.	.	.	.	.	4B-/	.	4b-\	.	4g\	.	4ee-\	.	4gg\	.	4bb-\	.
.	.	.	.	.	12b-\	.	12ff\	.	.	.	.	.	.	.	.	.	.	.	.	.	.	.	.	.	.	.	.	.	.	.
.	.	.	.	.	.	.	.	.	8E-\	-na	8e-\	-na	8b-\	-na	8gg\	-na	.	.	.	.	.	.	.	.	.	.	.	.	.	.
.	.	.	.	.	12b-\J	.	12gg\J	.	.	.	.	.	.	.	.	.	.	.	.	.	.	.	.	.	.	.	.	.	.	.
!	!	!	!	!	!	!	!	!	!	!	!LO:LB:g=original	!	!	!	!	!	!	!	!	!	!LO:LB:g=original	!	!	!	!	!	!LO:LB:g=original	!	!	!
=40	=40	=40	=40	=40	=40	=40	=40	=40	=40	=40	=40	=40	=40	=40	=40	=40	=40	=40	=40	=40	=40	=40	=40	=40	=40	=40	=40	=40	=40	=40
!	!	!	!	!	!LO:N:TREM:vis=4.	!	!	!	!	!	!	!	!	!	!	!	!	!	!	!	!	!	!	!	!	!	!	!	!	!
4BB-/	5	.	4B-/	.	12b-\L	.	12ff\L	.	4BB-/	no-	4d\	no-	4b-\	no-	8ff\L	no-	.	.	4r	.	4r	.	4r	.	4r	.	4r	.	4r	.
.	.	.	.	.	12b-\	.	12dd\	.	.	.	.	.	.	.	.	.	.	.	.	.	.	.	.	.	.	.	.	.	.	.
.	.	.	.	.	.	.	.	.	.	.	.	.	.	.	8dd\J	.	.	.	.	.	.	.	.	.	.	.	.	.	.	.
.	.	.	.	.	12b-\J	.	12b-\J	.	.	.	.	.	.	.	.	.	.	.	.	.	.	.	.	.	.	.	.	.	.	.
!	!	!	!	!	!LO:N:TREM:vis=4.	!	!	!	!	!	!	!	!	!	!	!	!	!	!	!	!	!	!	!	!	!	!	!	!	!
4BB-/	.	.	4B-/	.	12b-\L	.	12ff\L	.	4BB-/	-bis	4d\	-bis	4b-\	-bis	4b-\	-bis	.	.	4B-/	.	4b-\	.	4f\	.	4dd\	.	4ff\	.	4bb-\	.
.	.	.	.	.	12b-\	.	12dd\	.	.	.	.	.	.	.	.	.	.	.	.	.	.	.	.	.	.	.	.	.	.	.
.	.	.	.	.	12b-\J	.	12b-\J	.	.	.	.	.	.	.	.	.	.	.	.	.	.	.	.	.	.	.	.	.	.	.
*	*	*	*	*	*	*	*	*	*	*	*	*ij	*	*	*	*	*	*	*	*	*	*	*	*	*	*	*	*	*	*
!	!	!	!	!	!LO:N:TREM:vis=4.	!	!	!	!	!	!	!	!	!	!	!	!	!	!	!	!	!	!	!	!	!	!	!	!	!
4E-\	3	.	4B-/	.	12b-\L	.	12ee-\L	.	4.E-\	Do-	4.e-\	no-	4.b-\	do-	4.gg\	do-	.	.	4r	.	4r	.	4r	.	4r	.	4r	.	4r	.
.	.	.	.	.	12b-\	.	12ff\	.	.	.	.	.	.	.	.	.	.	.	.	.	.	.	.	.	.	.	.	.	.	.
.	.	.	.	.	12b-\J	.	12gg\J	.	.	.	.	.	.	.	.	.	.	.	.	.	.	.	.	.	.	.	.	.	.	.
!	!	!	!	!	!LO:N:TREM:vis=4.	!	!	!	!	!	!	!	!	!	!	!	!	!	!	!	!	!	!	!	!	!	!	!	!	!
4E-\	.	.	4B-/	.	12b-\L	.	12ee-\L	.	.	.	.	.	.	.	.	.	.	.	4B-/	.	4b-\	.	4g\	.	4ee-\	.	4gg\	.	4bb-\	.
.	.	.	.	.	12b-\	.	12ff\	.	.	.	.	.	.	.	.	.	.	.	.	.	.	.	.	.	.	.	.	.	.	.
.	.	.	.	.	.	.	.	.	8E-\	-na	8e-\	-bis	8b-\	-na	8gg\	-na	.	.	.	.	.	.	.	.	.	.	.	.	.	.
*	*	*	*	*	*	*	*	*	*	*	*	*Xij	*	*	*	*	*	*	*	*	*	*	*	*	*	*	*	*	*	*
.	.	.	.	.	12b-\J	.	12gg\J	.	.	.	.	.	.	.	.	.	.	.	.	.	.	.	.	.	.	.	.	.	.	.
=41	=41	=41	=41	=41	=41	=41	=41	=41	=41	=41	=41	=41	=41	=41	=41	=41	=41	=41	=41	=41	=41	=41	=41	=41	=41	=41	=41	=41	=41	=41
!	!	!	!	!	!LO:TX:t=P:problem=takt nr 41 zapisany repetycją	!	!	!	!	!	!	!	!	!	!	!	!	!	!	!	!	!	!	!	!	!	!	!	!	!
!	!	!	!	!	!LO:N:TREM:vis=4.	!	!	!	!	!	!	!	!	!	!	!	!	!	!	!	!	!	!	!	!	!	!	!	!	!
4BB-/	5	.	4B-/	.	12b-\Lyy	.	12ff\L	.	4BB-/	no-	4d\	pa-	4b-\	no-	8ff\L	no-	1r	1r	4r	.	4r	.	4r	.	4r	.	4r	.	4r	.
.	.	.	.	.	12b-\yy	.	12dd\	.	.	.	.	.	.	.	.	.	.	.	.	.	.	.	.	.	.	.	.	.	.	.
.	.	.	.	.	.	.	.	.	.	.	.	.	.	.	8dd\J	.	.	.	.	.	.	.	.	.	.	.	.	.	.	.
.	.	.	.	.	12b-\Jy	.	12b-\J	.	.	.	.	.	.	.	.	.	.	.	.	.	.	.	.	.	.	.	.	.	.	.
!	!	!	!	!	!LO:N:TREM:vis=4.	!	!	!	!	!	!	!	!	!	!	!	!	!	!	!	!	!	!	!	!	!	!	!	!	!
4BB-/	.	.	4B-/	.	12b-\Lyyy	.	12ff\L	.	4BB-/	-bis	4d\	.	4b-\	-bis	4b-\	-bis	.	.	4B-/	.	4b-\	.	4f\	.	4dd\	.	4ff\	.	4bb-\	.
*	*	*	*	*	*	*	*	*	*	*Xij	*	*	*	*	*	*	*	*	*	*	*	*	*	*	*	*	*	*	*	*
.	.	.	.	.	12b-\yy	.	12dd\	.	.	.	.	.	.	.	.	.	.	.	.	.	.	.	.	.	.	.	.	.	.	.
.	.	.	.	.	12b-\Jyy	.	12b-\J	.	.	.	.	.	.	.	.	.	.	.	.	.	.	.	.	.	.	.	.	.	.	.
!	!	!	!	!	!LO:N:TREM:vis=4.	!	!	!	!	!	!	!	!	!	!	!	!	!	!	!	!	!	!	!	!	!	!	!	!	!
4E-\	3	.	4B-/	.	12b-\Lyy	.	12ee-\L	.	2E-\	pa-	2e-\	.	2b-\	pa-	2gg\	pa-	.	.	4r	.	4r	.	4r	.	4r	.	4r	.	4r	.
.	.	.	.	.	12b-\yy	.	12ff\	.	.	.	.	.	.	.	.	.	.	.	.	.	.	.	.	.	.	.	.	.	.	.
.	.	.	.	.	12b-\Jyy	.	12gg\J	.	.	.	.	.	.	.	.	.	.	.	.	.	.	.	.	.	.	.	.	.	.	.
!	!	!	!	!	!LO:N:TREM:vis=4.	!	!	!	!	!	!	!	!	!	!	!	!	!	!	!	!	!	!	!	!	!	!	!	!	!
4E-\	.	.	4B-/	.	12b-\Lyy	.	12ee-\L	.	.	.	.	.	.	.	.	.	.	.	4B-/	.	4b-\	.	4g\	.	4ee-\	.	4gg\	.	4bb-\	.
.	.	.	.	.	12b-\yy	.	12ff\	.	.	.	.	.	.	.	.	.	.	.	.	.	.	.	.	.	.	.	.	.	.	.
.	.	.	.	.	12b-\Jyy	.	12gg\J	.	.	.	.	.	.	.	.	.	.	.	.	.	.	.	.	.	.	.	.	.	.	.
*	*	*	*	*	*Xtremolo	*	*	*	*	*	*	*	*	*	*	*	*	*	*	*	*	*	*	*	*	*	*	*	*	*
!	!	!	!	!	!	!	!	!	!LO:LB:g=original	!	!	!	!	!	!LO:LB:g=original	!	!	!	!	!	!	!	!	!	!	!	!	!	!	!
=42	=42	=42	=42	=42	=42	=42	=42	=42	=42	=42	=42	=42	=42	=42	=42	=42	=42	=42	=42	=42	=42	=42	=42	=42	=42	=42	=42	=42	=42	=42
4BB-/	5	.	4B-/	.	4b-\	.	4ff\	.	4BB-/	-cem	4d\	-cem	4b-\	-cem	4ff\	-cem	2r	2r	4r	.	4b-\	.	4r	.	4r	.	4ff\	.	4r	.
!	!	!	!	!	!	!LO:DY:t=for	!	!LO:DY:t=f.	!	!	!	!	!	!	!	!	!	!	!	!	!	!	!	!	!	!	!	!	!	!
4r	.	.	4r	.	4r	f	4r	f	4r	.	4r	.	4r	.	4r	.	.	.	4B-/	.	4r	.	4f\	.	4b-\	.	4r	.	4bb-\	.
*	*	*	*	*	*Xtuplet	*	*	*	*	*	*	*	*	*	*	*	*	*	*	*	*	*	*	*	*	*	*	*	*	*
!	!	!LO:DY:t=for&colon;	!	!LO:DY:t=f&colon;	!	!	!	!	!	!	!	!	!	!	!	!	!	!	!	!	!	!	!	!	!	!LO:DY:t=for	!	!LO:DY:t=for	!	!
4G\	5 3	f	4g\	f	12dd\L	.	12bb-\L	.	4.G\	Do-	4.f\	Do-	4.b-\	Do-	4.dd\	do-	4BB-/	4b-\	2b-\	.	2dd\	.	2d\	.	2dd\	f	2bb-\	f	2ddd\	.
.	.	.	.	.	12ee-\	.	12ccc\	.	.	.	.	.	.	.	.	.	.	.	.	.	.	.	.	.	.	.	.	.	.	.
.	.	.	.	.	12ff\J	.	12ddd\J	.	.	.	.	.	.	.	.	.	.	.	.	.	.	.	.	.	.	.	.	.	.	.
4G\	.	.	4g\	.	12dd\L	.	12bb-\L	.	.	.	.	.	.	.	.	.	8BB-/L	8b-\L	.	.	.	.	.	.	.	.	.	.	.	.
.	.	.	.	.	12ee-\	.	12ccc\	.	.	.	.	.	.	.	.	.	.	.	.	.	.	.	.	.	.	.	.	.	.	.
.	.	.	.	.	.	.	.	.	8G\	-na	8f\	-na	8b-\	-na	8dd\	-na	8BB-/J	8b-\J	.	.	.	.	.	.	.	.	.	.	.	.
.	.	.	.	.	12ff\J	.	12ddd\J	.	.	.	.	.	.	.	.	.	.	.	.	.	.	.	.	.	.	.	.	.	.	.
!	!	!	!	!	!LO:LB:g=original	!	!	!	!	!	!	!	!	!	!	!	!LO:LB:g=original	!	!	!	!	!	!LO:LB:g=original	!	!	!	!	!	!LO:LB:g=original	!
=43	=43	=43	=43	=43	=43	=43	=43	=43	=43	=43	=43	=43	=43	=43	=43	=43	=43	=43	=43	=43	=43	=43	=43	=43	=43	=43	=43	=43	=43	=43
!	!	!	!	!	!	!	!	!	!	!	!	!	!	!	!	!	!	!	!	!	!LO:TX:t=P:problem=takty nr 43-48 zapisane repetycją	!	!	!	!	!	!	!	!	!
4E-\	6	.	4e-\	.	12ee-\L	.	12ccc\L	.	4E-\	no-	4.g\	no-	4a\	no-	4cc\	no-	2r	4cc\	4f/	.	4dd\yy	.	4d\	.	4b-\	.	4bb-\	.	4ccc\	.
.	.	.	.	.	12ff\	.	12ddd\	.	.	.	.	.	.	.	.	.	.	.	.	.	.	.	.	.	.	.	.	.	.	.
.	.	.	.	.	12gg\J	.	12eee-\J	.	.	.	.	.	.	.	.	.	.	.	.	.	.	.	.	.	.	.	.	.	.	.
!	!	!	!	!	!	!	!	!	!	!	!	!	!	!	!	!	!	!	!	!	!	!	!LO:TX:a:t=d	!	!	!	!	!	!	!
4E-\	.	.	4e-\	.	12ee-\L	.	12ccc\L	.	4E-\	-bis	.	.	4a\	-bis	4cc\	-bis	.	8cc\L	8f/L	.	8dd\Lyy	.	8d\L	.	8b-\L	.	8bb-\L	.	4ccc\	.
.	.	.	.	.	12ff\	.	12ddd\	.	.	.	.	.	.	.	.	.	.	.	.	.	.	.	.	.	.	.	.	.	.	.
.	.	.	.	.	.	.	.	.	.	.	8g\	-bis	.	.	.	.	.	8cc\J	8f/J	.	8dd\Jyy	.	8d\J	.	8b-\J	.	8bb-\J	.	.	.
.	.	.	.	.	12gg\J	.	12eee-\J	.	.	.	.	.	.	.	.	.	.	.	.	.	.	.	.	.	.	.	.	.	.	.
4F\	3	.	4f\	.	12a\L	.	12ff\L	.	2F\	pa-	2f\	pa-	2a\	pa-	2ff\	pa-	4FF/	4f/	4f/	.	4cc\yy	.	4c\	.	4a\	.	4aa\	.	2fff\	.
.	.	.	.	.	12b-\	.	12gg\	.	.	.	.	.	.	.	.	.	.	.	.	.	.	.	.	.	.	.	.	.	.	.
.	.	.	.	.	12cc\J	.	12aa\J	.	.	.	.	.	.	.	.	.	.	.	.	.	.	.	.	.	.	.	.	.	.	.
4F\	.	.	4f\	.	12a\L	.	12ff\L	.	.	.	.	.	.	.	.	.	8FF/L	8f/L	8f/L	.	8cc\Lyy	.	8c\L	.	8a\L	.	8aa\L	.	.	.
.	.	.	.	.	12b-\	.	12gg\	.	.	.	.	.	.	.	.	.	.	.	.	.	.	.	.	.	.	.	.	.	.	.
.	.	.	.	.	.	.	.	.	.	.	.	.	.	.	.	.	8FF/J	8f/J	8f/J	.	8cc\Jyy	.	8c\J	.	8a\J	.	8aa\J	.	.	.
.	.	.	.	.	12cc\J	.	12aa\J	.	.	.	.	.	.	.	.	.	.	.	.	.	.	.	.	.	.	.	.	.	.	.
!LO:PB:g=original	!	!	!	!	!	!	!LO:LB:g=original	!	!	!	!	!	!LO:LB:g=original	!	!	!	!	!LO:LB:g=original	!	!	!	!	!	!	!LO:LB:g=original	!	!	!	!	!
=44	=44	=44	=44	=44	=44	=44	=44	=44	=44	=44	=44	=44	=44	=44	=44	=44	=44	=44	=44	=44	=44	=44	=44	=44	=44	=44	=44	=44	=44	=44
4BB-/	8	.	4B-/	.	4dd\	.	4bb-\	.	4BB-/	-cem	4f\	-cem	4b-\	-cem	4dd\	-cem	4BB-/	4b-\	4d/	p	4b-\yy	.	4d\	.	4b-\	.	4bb-\	.	4ddd\	.
4r	.	.	4r	.	4r	p	4r	.	4r	.	4r	.	4r	.	4r	.	4r	4r	4r	.	4b-\yy	.	4r	.	4r	.	4r	.	4r	.
!	!	!LO:DY:t=p&colon;	!	!LO:DY:t=p&colon;:rj	!	!	!	!	!	!	!	!	!	!	!	!	!	!	!	!	!	!	!	!	!	!	!	!	!	!
4E-\	3	p	4B-/	p	12b-\L	.	12ee-\L	.	4.E-\	Do-	4.e-\	Do-	4.b-\	Do-	4.gg\	do-	2r	2r	4r	.	4ryy	.	4r	.	4r	.	4r	.	4r	.
.	.	.	.	.	12b-\	.	12ff\	.	.	.	.	.	.	.	.	.	.	.	.	.	.	.	.	.	.	.	.	.	.	.
.	.	.	.	.	12b-\J	.	12gg\J	.	.	.	.	.	.	.	.	.	.	.	.	.	.	.	.	.	.	.	.	.	.	.
*	*	*	*	*	*tremolo	*	*	*	*	*	*	*	*	*	*	*	*	*	*	*	*	*	*	*	*	*	*	*	*	*
!	!	!	!	!	!LO:N:TREM:vis=4.	!	!	!	!	!	!	!	!	!	!	!	!	!	!	!	!	!	!	!	!	!LO:DY:t=pi	!	!	!	!
4E-\	.	.	4B-/	.	12b-\L	.	12ee-\L	.	.	.	.	.	.	.	.	.	.	.	4B-/	.	4b-\yy	.	4g\	.	4ee-\	p	4gg\	.	4bb-\	.
.	.	.	.	.	12b-\	.	12ff\	.	.	.	.	.	.	.	.	.	.	.	.	.	.	.	.	.	.	.	.	.	.	.
.	.	.	.	.	.	.	.	.	8E-\	-na	8e-\	-na	8b-\	-na	8gg\	-na	.	.	.	.	.	.	.	.	.	.	.	.	.	.
.	.	.	.	.	12b-\J	.	12gg\J	.	.	.	.	.	.	.	.	.	.	.	.	.	.	.	.	.	.	.	.	.	.	.
=45	=45	=45	=45	=45	=45	=45	=45	=45	=45	=45	=45	=45	=45	=45	=45	=45	=45	=45	=45	=45	=45	=45	=45	=45	=45	=45	=45	=45	=45	=45
!	!	!	!	!	!LO:N:TREM:vis=4.	!	!	!	!	!	!	!	!	!	!	!	!LO:TX:a:t=3.	!	!	!	!	!	!	!	!	!	!	!	!	!
4BB-/	5	.	4B-/	.	12b-\L	.	12ff\L	.	4BB-/	no-	4d\	no-	4b-\	no-	8ff\L	no-	0r	0r	4r	.	4ryy	.	4r	.	4r	.	4r	p	4r	.
.	.	.	.	.	12b-\	.	12dd\	.	.	.	.	.	.	.	.	.	.	.	.	.	.	.	.	.	.	.	.	.	.	.
.	.	.	.	.	.	.	.	.	.	.	.	.	.	.	8dd\J	.	.	.	.	.	.	.	.	.	.	.	.	.	.	.
.	.	.	.	.	12b-\J	.	12b-\J	.	.	.	.	.	.	.	.	.	.	.	.	.	.	.	.	.	.	.	.	.	.	.
!	!	!	!	!	!LO:N:TREM:vis=4.	!	!LO:TX:a:t=bis	!	!	!	!	!	!	!	!	!	!	!	!	!	!	!	!	!	!	!	!	!	!	!
!	!	!	!	!	!LO:TX:a:t=3 razy	!	!	!	!	!	!	!	!	!	!	!	!	!	!	!	!	!	!	!	!	!	!	!	!	!
4BB-/	.	.	4B-/	.	12b-\L	.	12ff\L	.	4BB-/	-bis	4d\	-bis	4b-\	-bis	4b-\	-bis	.	.	4B-/	.	4b-\yy	.	4f\	.	4dd\	.	4ff\	.	4bb-\	.
.	.	.	.	.	12b-\	.	12dd\	.	.	.	.	.	.	.	.	.	.	.	.	.	.	.	.	.	.	.	.	.	.	.
.	.	.	.	.	12b-\J	.	12b-\J	.	.	.	.	.	.	.	.	.	.	.	.	.	.	.	.	.	.	.	.	.	.	.
*	*	*	*	*	*	*	*	*	*	*ij	*	*	*	*	*	*	*	*	*	*	*	*	*	*	*	*	*	*	*	*
!	!	!	!	!	!LO:N:TREM:vis=4.	!	!	!	!	!	!	!	!	!	!	!	!	!	!	!	!	!	!	!	!	!	!	!	!	!
4E-\	3	.	4B-/	.	12b-\L	.	12ee-\L	.	4.E-\	Do-	4.e-\	Do-	4.b-\	do-	4.gg\	do-	.	.	4r	.	4ryy	.	4r	.	4r	.	4r	.	4r	.
.	.	.	.	.	12b-\	.	12ff\	.	.	.	.	.	.	.	.	.	.	.	.	.	.	.	.	.	.	.	.	.	.	.
.	.	.	.	.	12b-\J	.	12gg\J	.	.	.	.	.	.	.	.	.	.	.	.	.	.	.	.	.	.	.	.	.	.	.
!	!	!	!	!	!LO:N:TREM:vis=4.	!	!	!	!	!	!	!	!	!	!	!	!	!	!	!	!	!	!	!	!	!	!	!	!	!
4E-\	.	.	4B-/	.	12b-\L	.	12ee-\L	.	.	.	.	.	.	.	.	.	.	.	4B-/	.	4b-\yy	.	4g\	.	4ee-\	.	4gg\	.	4bb-\	.
.	.	.	.	.	12b-\	.	12ff\	.	.	.	.	.	.	.	.	.	.	.	.	.	.	.	.	.	.	.	.	.	.	.
.	.	.	.	.	.	.	.	.	8E-\	-na	8e-\	-na	8b-\	-na	8gg\	na	.	.	.	.	.	.	.	.	.	.	.	.	.	.
.	.	.	.	.	12b-\J	.	12gg\J	.	.	.	.	.	.	.	.	.	.	.	.	.	.	.	.	.	.	.	.	.	.	.
!	!	!	!LO:LB:g=original	!	!	!	!	!	!	!	!LO:LB:g=original	!	!	!	!	!	!	!	!	!	!	!	!	!	!	!	!	!	!	!
=46	=46	=46	=46	=46	=46	=46	=46	=46	=46	=46	=46	=46	=46	=46	=46	=46	=46	=46	=46	=46	=46	=46	=46	=46	=46	=46	=46	=46	=46	=46
!	!	!	!	!	!LO:TX:t=P:problem=takty nr 46-47 zapisane repetycją	!	!LO:TX:t=P:problem=takt nr 46 zapisany repetycją	!	!	!	!	!	!	!	!	!	!	!	!	!	!	!	!	!	!	!	!	!	!	!
!	!	!	!	!	!LO:N:TREM:vis=4.	!	!	!	!	!	!	!	!	!	!	!	!	!	!	!	!	!	!	!	!	!	!	!	!	!
4BB-/	5	.	4B-/	.	12b-\Lyy	.	12ff\Lyy	.	4BB-/	no-	4d\	no-	4b-\	no-	8ff\L	no-	.	.	4r	.	4ryy	.	4r	.	4r	.	4r	.	4r	.
.	.	.	.	.	12b-\yy	.	12dd\yy	.	.	.	.	.	.	.	.	.	.	.	.	.	.	.	.	.	.	.	.	.	.	.
.	.	.	.	.	.	.	.	.	.	.	.	.	.	.	8dd\J	.	.	.	.	.	.	.	.	.	.	.	.	.	.	.
.	.	.	.	.	12b-\Jy	.	12b-\Jyy	.	.	.	.	.	.	.	.	.	.	.	.	.	.	.	.	.	.	.	.	.	.	.
!	!	!	!	!	!LO:N:TREM:vis=4.	!	!	!	!	!	!	!	!	!	!	!	!	!	!	!	!	!	!	!	!	!	!	!	!	!
4BB-/	.	.	4B-/	.	12b-\Lyyy	.	12ff\Lyy	.	4BB-/	-bis	4d\	-bis	4b-\	-bis	4b-\	-bis	.	.	4B-/	.	4b-\yy	.	4f\	.	4dd\	.	4ff\	.	4bb-\	.
*	*	*	*	*	*	*	*	*	*	*Xij	*	*	*	*	*	*	*	*	*	*	*	*	*	*	*	*	*	*	*	*
.	.	.	.	.	12b-\yy	.	12dd\yy	.	.	.	.	.	.	.	.	.	.	.	.	.	.	.	.	.	.	.	.	.	.	.
.	.	.	.	.	12b-\Jyy	.	12b-\Jyy	.	.	.	.	.	.	.	.	.	.	.	.	.	.	.	.	.	.	.	.	.	.	.
!	!	!	!	!	!LO:N:TREM:vis=4.	!	!	!	!	!	!	!	!	!	!	!	!	!	!	!	!	!	!	!	!	!	!	!	!	!
4E-\	3	.	4B-/	.	12b-\Lyy	.	12ee-\Lyy	.	4.E-\	Do-	4.e-\	Do-	4.b-\	do-	4.gg\	do-	.	.	4r	.	4ryy	.	4r	.	4r	.	4r	.	4r	.
.	.	.	.	.	12b-\yy	.	12ff\yy	.	.	.	.	.	.	.	.	.	.	.	.	.	.	.	.	.	.	.	.	.	.	.
.	.	.	.	.	12b-\Jyy	.	12gg\Jyy	.	.	.	.	.	.	.	.	.	.	.	.	.	.	.	.	.	.	.	.	.	.	.
!	!	!	!	!	!LO:N:TREM:vis=4.	!	!	!	!	!	!	!	!	!	!	!	!	!	!	!	!	!	!	!	!	!	!	!	!	!
4E-\	.	.	4B-/	.	12b-\Lyy	.	12ee-\Lyy	.	.	.	.	.	.	.	.	.	.	.	4B-/	.	4b-\yy	.	4g\	.	4ee-\	.	4gg\	.	4bb-\	.
.	.	.	.	.	12b-\yy	.	12ff\yy	.	.	.	.	.	.	.	.	.	.	.	.	.	.	.	.	.	.	.	.	.	.	.
.	.	.	.	.	.	.	.	.	8E-\	-na	8e-\	-na	8b-\	-na	8gg\	-na	.	.	.	.	.	.	.	.	.	.	.	.	.	.
.	.	.	.	.	12b-\Jyy	.	12gg\Jyy	.	.	.	.	.	.	.	.	.	.	.	.	.	.	.	.	.	.	.	.	.	.	.
!	!	!	!	!	!	!	!	!	!LO:LB:g=original	!	!	!	!	!	!	!	!	!	!LO:LB:g=original	!	!	!	!	!	!	!	!	!	!	!
=47	=47	=47	=47	=47	=47	=47	=47	=47	=47	=47	=47	=47	=47	=47	=47	=47	=47	=47	=47	=47	=47	=47	=47	=47	=47	=47	=47	=47	=47	=47
!	!	!	!	!	!LO:N:TREM:vis=4.	!	!	!	!	!	!	!	!	!	!	!	!	!	!	!	!	!	!	!	!	!	!	!	!	!
4BB-/	5	.	4B-/	.	12b-\Lyy	.	12ff\L	.	4BB-/	no-	4d\	no-	4b-\	no-	8ff\L	no-	1r	1r	4r	.	4ryy	.	4r	.	4r	.	4r	.	4r	.
.	.	.	.	.	12b-\yy	.	12dd\	.	.	.	.	.	.	.	.	.	.	.	.	.	.	.	.	.	.	.	.	.	.	.
.	.	.	.	.	.	.	.	.	.	.	.	.	.	.	8dd\J	.	.	.	.	.	.	.	.	.	.	.	.	.	.	.
.	.	.	.	.	12b-\Jyy	.	12b-\J	.	.	.	.	.	.	.	.	.	.	.	.	.	.	.	.	.	.	.	.	.	.	.
!	!	!	!	!	!LO:N:TREM:vis=4.	!	!	!	!	!	!	!	!	!	!	!	!	!	!	!	!	!	!	!	!	!	!	!	!	!
4BB-/	.	.	4B-/	.	12b-\Lyy	.	12ff\L	.	4BB-/	-bis	4d\	-bis	4b-\	-bis	4b-\	-bis	.	.	4B-/	.	4b-\yy	.	4f\	.	4dd\	.	4ff\	.	4bb-\	.
.	.	.	.	.	12b-\yy	.	12dd\	.	.	.	.	.	.	.	.	.	.	.	.	.	.	.	.	.	.	.	.	.	.	.
.	.	.	.	.	12b-\Jyy	.	12b-\J	.	.	.	.	.	.	.	.	.	.	.	.	.	.	.	.	.	.	.	.	.	.	.
!	!	!	!	!	!LO:N:TREM:vis=4.	!	!	!	!	!	!	!	!	!	!	!	!	!	!	!	!	!	!	!	!	!	!	!	!	!
4E-\	3	.	4B-/	.	12b-\Lyy	.	12ee-\L	.	2E-\	pa-	2e-\	pa-	2b-\	Pa-	2gg\	pa-	.	.	4r	.	4ryy	.	4r	.	4r	.	4r	.	4r	.
.	.	.	.	.	12b-\yy	.	12ff\	.	.	.	.	.	.	.	.	.	.	.	.	.	.	.	.	.	.	.	.	.	.	.
.	.	.	.	.	12b-\Jyy	.	12gg\J	.	.	.	.	.	.	.	.	.	.	.	.	.	.	.	.	.	.	.	.	.	.	.
!	!	!	!	!	!LO:N:TREM:vis=4.	!	!	!	!	!	!	!	!	!	!	!	!	!	!	!	!	!	!	!	!	!	!	!	!	!
4E-\	.	.	4B-/	.	12b-\Lyy	.	12ee-\L	.	.	.	.	.	.	.	.	.	.	.	4B-/	.	4b-\yy	.	4g\	.	4ee-\	.	4gg\	.	4bb-\	.
.	.	.	.	.	12b-\yy	.	12ff\	.	.	.	.	.	.	.	.	.	.	.	.	.	.	.	.	.	.	.	.	.	.	.
.	.	.	.	.	12b-\Jyy	.	12gg\J	.	.	.	.	.	.	.	.	.	.	.	.	.	.	.	.	.	.	.	.	.	.	.
*	*	*	*	*	*Xtremolo	*	*	*	*	*	*	*	*	*	*	*	*	*	*	*	*	*	*	*	*	*	*	*	*	*
!	!	!	!	!	!	!	!	!	!	!	!	!	!	!	!	!	!	!	!	!	!	!	!LO:LB:g=original	!	!	!	!LO:LB:g=original	!	!	!
=48	=48	=48	=48	=48	=48	=48	=48	=48	=48	=48	=48	=48	=48	=48	=48	=48	=48	=48	=48	=48	=48	=48	=48	=48	=48	=48	=48	=48	=48	=48
4BB-/	5	.	4B-/	.	4b-\	f	4ff\	.	4BB-/	-cem	4d\	-cem	4b-\	-cem	4ff\	-cem	2r	2r	4r	.	4b-\yy	.	4f\	.	4r	.	4ff\	.	4r	.
!	!	!	!	!LO:DY:t=f&colon;	!	!	!	!	!	!	!	!	!	!	!	!	!	!	!	!	!	!	!	!	!	!	!	!	!	!
4r	.	.	4r	f	4r	.	4r	.	4r	.	4r	.	4r	.	4r	.	.	.	4B-/	.	4ryy	.	4r	.	4dd\	.	4r	.	4bb-\	.
!	!	!LO:DY:t=for&colon;	!	!	!	!	!	!	!	!	!	!	!	!	!	!	!	!	!	!	!	!	!	!	!	!LO:DY:t=for	!	!LO:DY:t=for	!	!
4G\	5 3	f	4g\	.	12dd\L	.	12bb-\L	.	4.G\	Do-	4.f\	Do-	4.b-\	Do-	4.dd\	do-	4BB-/	4b-\	2b-\	.	2dd\yy	.	2d\	.	2dd\	f	2bb-\	f	2ddd\	.
.	.	.	.	.	12ee-\	.	12ccc\	.	.	.	.	.	.	.	.	.	.	.	.	.	.	.	.	.	.	.	.	.	.	.
.	.	.	.	.	12ff\J	.	12ddd\J	.	.	.	.	.	.	.	.	.	.	.	.	.	.	.	.	.	.	.	.	.	.	.
4G\	.	.	4g\	.	12dd\L	.	12bb-\L	.	.	.	.	.	.	.	.	.	8BB-/L	8b-\L	.	.	.	.	.	.	.	.	.	.	.	.
.	.	.	.	.	12ee-\	.	12ccc\	.	.	.	.	.	.	.	.	.	.	.	.	.	.	.	.	.	.	.	.	.	.	.
.	.	.	.	.	.	.	.	.	8G\	-na	8f\	-na	8b-\	-na	8dd\	-na	8BB-/J	8b-\J	.	.	.	.	.	.	.	.	.	.	.	.
.	.	.	.	.	12ff\J	.	12ddd\J	.	.	.	.	.	.	.	.	.	.	.	.	.	.	.	.	.	.	.	.	.	.	.
!LO:LB:g=original	!	!	!	!	!	!	!	!	!	!	!	!	!LO:LB:g=original	!	!	!	!	!	!	!	!	!	!	!	!	!	!	!	!	!
=49	=49	=49	=49	=49	=49	=49	=49	=49	=49	=49	=49	=49	=49	=49	=49	=49	=49	=49	=49	=49	=49	=49	=49	=49	=49	=49	=49	=49	=49	=49
4E-\	6	.	4e-\	.	12ee-\L	.	12ccc\L	.	4E-\	no-	4g\	no-	4a\	no-	4cc\	no-	2r	4cc\	4b-\	.	4dd\	.	4d\	.	4dd\	.	4bb-\	.	4ccc\	.
.	.	.	.	.	12ff\	.	12ddd\	.	.	.	.	.	.	.	.	.	.	.	.	.	.	.	.	.	.	.	.	.	.	.
.	.	.	.	.	12gg\J	.	12eee-\J	.	.	.	.	.	.	.	.	.	.	.	.	.	.	.	.	.	.	.	.	.	.	.
4E-\	.	.	4e-\	.	12ee-\L	.	12ccc\L	.	4E-\	-bis	4g\	-bis	4a\	-bis	4cc\	-bis	.	8cc\L	8b-\L	.	8dd\L	.	8d\L	.	8dd\L	.	8bb-\L	.	4ccc\	.
.	.	.	.	.	12ff\	.	12ddd\	.	.	.	.	.	.	.	.	.	.	.	.	.	.	.	.	.	.	.	.	.	.	.
.	.	.	.	.	.	.	.	.	.	.	.	.	.	.	.	.	.	8cc\J	8b-\J	.	8dd\J	.	8d\J	.	8dd\J	.	8bb-\J	.	.	.
.	.	.	.	.	12gg\J	.	12eee-\J	.	.	.	.	.	.	.	.	.	.	.	.	.	.	.	.	.	.	.	.	.	.	.
4F\	3	.	4f\	.	12a\L	.	12ff\L	.	2F\	pa-	2f\	pa-	2a\	pa-	2ff\	pa-	4FF/	4f/	4f/	.	4cc\	.	4c\	.	4cc\	.	4aa\	.	2fff\	.
.	.	.	.	.	12b-\	.	12gg\	.	.	.	.	.	.	.	.	.	.	.	.	.	.	.	.	.	.	.	.	.	.	.
.	.	.	.	.	12cc\J	.	12aa\J	.	.	.	.	.	.	.	.	.	.	.	.	.	.	.	.	.	.	.	.	.	.	.
4F\	.	.	4f\	.	12a\L	.	12ff\L	.	.	.	.	.	.	.	.	.	8FF/L	8f/L	8f/L	.	8cc\L	.	8c\L	.	8cc\L	.	8aa\L	.	.	.
.	.	.	.	.	12b-\	.	12gg\	.	.	.	.	.	.	.	.	.	.	.	.	.	.	.	.	.	.	.	.	.	.	.
.	.	.	.	.	.	.	.	.	.	.	.	.	.	.	.	.	8FF/J	8f/J	8f/J	.	8cc\J	.	8c\J	.	8cc\J	.	8aa\J	.	.	.
.	.	.	.	.	12cc\J	.	12aa\J	.	.	.	.	.	.	.	.	.	.	.	.	.	.	.	.	.	.	.	.	.	.	.
!	!	!	!	!	!LO:LB:g=original	!	!	!	!	!	!	!	!	!	!LO:LB:g=original	!	!	!	!	!	!	!	!	!	!	!	!	!	!	!
=50	=50	=50	=50	=50	=50	=50	=50	=50	=50	=50	=50	=50	=50	=50	=50	=50	=50	=50	=50	=50	=50	=50	=50	=50	=50	=50	=50	=50	=50	=50
4BB-/	8	.	4b-\	.	4dd\	.	4bb-\	.	4B-\	-cem	4f\	-cem	4b-\	-cem	4dd\	-cem	4BB-/	4b-\	4d/	.	4b-\	.	4d\	.	4dd\	.	4bb-\	.	4ddd\	.
4r	.	.	4r	.	4r	.	4r	.	4r	.	4r	.	4r	.	4r	.	4r	4r	4r	.	4r	.	4r	.	4r	.	4r	.	4r	.
*	*	*	*	*	*	*	*	*	*	*ij	*	*	*	*	*	*	*	*	*	*	*	*	*	*	*	*	*	*	*	*
!	!	!LO:DY:t=p&colon;	!	!	!	!	!	!	!	!	!	!	!	!	!	!	!	!	!	!	!	!	!	!	!LO:PB:g=original	!	!	!	!	!
4G\	5 3	p	4g\	.	12dd\L	.	12bb-\L	.	4.G\	Do-	4.f\	Do-	4.b-\	Do-	4.dd\	do-	4BB-/	4b-\	2b-\	.	2dd\	.	2d\	.	2dd\	.	2bb-\	.	2ddd\	.
.	.	.	.	.	12ee-\	.	12ccc\	.	.	.	.	.	.	.	.	.	.	.	.	.	.	.	.	.	.	.	.	.	.	.
.	.	.	.	.	12ff\J	.	12ddd\J	.	.	.	.	.	.	.	.	.	.	.	.	.	.	.	.	.	.	.	.	.	.	.
4G\	.	.	4g\	.	12dd\L	.	12bb-\L	.	.	.	.	.	.	.	.	.	8BB-/L	8b-\L	.	.	.	.	.	.	.	.	.	.	.	.
.	.	.	.	.	12ee-\	.	12ccc\	.	.	.	.	.	.	.	.	.	.	.	.	.	.	.	.	.	.	.	.	.	.	.
.	.	.	.	.	.	.	.	.	8G\	-na	8f\	-na	8b-\	-na	8dd\	-na	8BB-/J	8b-\J	.	.	.	.	.	.	.	.	.	.	.	.
.	.	.	.	.	12ff\J	.	12ddd\J	.	.	.	.	.	.	.	.	.	.	.	.	.	.	.	.	.	.	.	.	.	.	.
!	!	!	!	!	!	!	!LO:LB:g=original	!	!	!	!	!	!	!	!	!	!	!	!	!	!	!	!	!	!	!	!	!	!	!
=51	=51	=51	=51	=51	=51	=51	=51	=51	=51	=51	=51	=51	=51	=51	=51	=51	=51	=51	=51	=51	=51	=51	=51	=51	=51	=51	=51	=51	=51	=51
4E-\	6	.	4e-\	.	12ee-\L	.	12ccc\L	.	4E-\	no-	4g\	no-	4a\	no-	4cc\	no-	2r	4cc\	4f/	.	4cc\	.	4d\	.	4dd\	.	4bb-\	.	4ccc\	.
.	.	.	.	.	12ff\	.	12ddd\	.	.	.	.	.	.	.	.	.	.	.	.	.	.	.	.	.	.	.	.	.	.	.
.	.	.	.	.	12gg\J	.	12eee-\J	.	.	.	.	.	.	.	.	.	.	.	.	.	.	.	.	.	.	.	.	.	.	.
4E-\	.	.	4e-\	.	12ee-\L	.	12ccc\L	.	4E-\	-bis	4g\	-bis	4a\	-bis	4cc\	-bis	.	8cc\L	8f/L	.	8cc\L	.	8d\L	.	8dd\L	.	8bb-\L	.	4ccc\	.
*	*	*	*	*	*	*	*	*	*	*Xij	*	*	*	*	*	*	*	*	*	*	*	*	*	*	*	*	*	*	*	*
.	.	.	.	.	12ff\	.	12ddd\	.	.	.	.	.	.	.	.	.	.	.	.	.	.	.	.	.	.	.	.	.	.	.
.	.	.	.	.	.	.	.	.	.	.	.	.	.	.	.	.	.	8cc\J	8f/J	.	8cc\J	.	8d\J	.	8dd\J	.	8bb-\J	.	.	.
.	.	.	.	.	12gg\J	.	12eee-\J	.	.	.	.	.	.	.	.	.	.	.	.	.	.	.	.	.	.	.	.	.	.	.
4F\	3	.	4f\	.	12a\L	.	12ff\L	.	2F\	pa-	2f\	pa-	2a\	pa-	2ff\	pa-	4FF/	4f/	4f/	.	4cc\	.	4c\	.	4cc\	.	4aa\	.	2fff\	.
.	.	.	.	.	12b-\	.	12gg\	.	.	.	.	.	.	.	.	.	.	.	.	.	.	.	.	.	.	.	.	.	.	.
.	.	.	.	.	12cc\J	.	12aa\J	.	.	.	.	.	.	.	.	.	.	.	.	.	.	.	.	.	.	.	.	.	.	.
4F\	.	.	4f\	.	12a\L	.	12ff\L	.	.	.	.	.	.	.	.	.	8FF/L	8f/L	8f/L	.	8cc\L	.	8c\L	.	8cc\L	.	8aa\L	.	.	.
.	.	.	.	.	12b-\	.	12gg\	.	.	.	.	.	.	.	.	.	.	.	.	.	.	.	.	.	.	.	.	.	.	.
.	.	.	.	.	.	.	.	.	.	.	.	.	.	.	.	.	8FF/J	8f/J	8f/J	.	8cc\J	.	8c\J	.	8cc\J	.	8aa\J	.	.	.
.	.	.	.	.	12cc\J	.	12aa\J	.	.	.	.	.	.	.	.	.	.	.	.	.	.	.	.	.	.	.	.	.	.	.
!	!	!	!LO:LB:g=original	!	!	!	!	!	!LO:LB:g=original	!	!LO:LB:g=original	!	!	!	!	!	!	!LO:LB:g=original	!	!	!LO:LB:g=original	!	!	!	!	!	!	!	!LO:LB:g=original	!
=52	=52	=52	=52	=52	=52	=52	=52	=52	=52	=52	=52	=52	=52	=52	=52	=52	=52	=52	=52	=52	=52	=52	=52	=52	=52	=52	=52	=52	=52	=52
4B-\	3	.	4b-\	.	12dd\L	.	12bb-\L	.	4B-\	-cem	4f\	-cem	4b-\	-cem	4dd\	-cem	4BB-/	4b-\	4b-\	.	4dd\	.	4d\	.	4dd\	.	4bb-\	.	4ddd\	.
.	.	.	.	.	12ee-\	.	12ccc\	.	.	.	.	.	.	.	.	.	.	.	.	.	.	.	.	.	.	.	.	.	.	.
.	.	.	.	.	12ff\J	.	12ddd\J	.	.	.	.	.	.	.	.	.	.	.	.	.	.	.	.	.	.	.	.	.	.	.
4B-\	.	.	4b-\	.	12dd\L	.	12bb-\L	.	8B-\	Do-	8f\	Do-	8b-\	Do-	8dd\L	do-	8BB-/L	8b-\L	8b-\L	.	8dd\L	.	8d\L	.	8dd\L	.	8bb-\L	.	8ddd\L	.
.	.	.	.	.	12ee-\	.	12ccc\	.	.	.	.	.	.	.	.	.	.	.	.	.	.	.	.	.	.	.	.	.	.	.
.	.	.	.	.	.	.	.	.	8B-\	-na	8f\	-na	8b-\	-na	8dd\J	-na	8BB-/J	8b-\J	8b-\J	.	8dd\J	.	8d\J	.	8dd\J	.	8bb-\J	.	8ddd\J	.
.	.	.	.	.	12ff\J	.	12ddd\J	.	.	.	.	.	.	.	.	.	.	.	.	.	.	.	.	.	.	.	.	.	.	.
!	!	!	!	!	!LO:TX:a:t=bis	!	!	!	!	!	!	!	!	!	!	!	!	!	!	!	!	!	!	!	!	!	!	!	!	!
4F\	5	.	4a\	.	12a\L	.	12ff\L	.	4F\	no-	4e-\	no-	4a\	No-	4cc\	no-	4FF/	4f/	4f/	.	4cc\	.	4c\	.	4cc\	.	4aa\	.	4ccc\	.
.	.	.	.	.	12b-\	.	12gg\	.	.	.	.	.	.	.	.	.	.	.	.	.	.	.	.	.	.	.	.	.	.	.
.	.	.	.	.	12cc\J	.	12aa\J	.	.	.	.	.	.	.	.	.	.	.	.	.	.	.	.	.	.	.	.	.	.	.
4F\	.	.	4a\	.	12a\L	.	12ff\L	.	4F\	-bis	4e-\	-bis	4a\	-bis	4cc\	-bis	8FF/L	8f/L	8f/L	.	8cc\L	.	8c\L	.	8cc\L	.	8aa\L	.	8ccc\L	.
.	.	.	.	.	12b-\	.	12gg\	.	.	.	.	.	.	.	.	.	.	.	.	.	.	.	.	.	.	.	.	.	.	.
.	.	.	.	.	.	.	.	.	.	.	.	.	.	.	.	.	8FF/J	8f/J	8f/J	.	8cc\J	.	8c\J	.	8cc\J	.	8aa\J	.	8ccc\J	.
.	.	.	.	.	12cc\J	.	12aa\J	.	.	.	.	.	.	.	.	.	.	.	.	.	.	.	.	.	.	.	.	.	.	.
!	!	!	!	!	!	!	!	!	!	!	!	!	!	!	!	!	!LO:LB:g=original	!	!	!	!	!	!LO:LB:g=original	!	!	!	!	!	!	!
=53	=53	=53	=53	=53	=53	=53	=53	=53	=53	=53	=53	=53	=53	=53	=53	=53	=53	=53	=53	=53	=53	=53	=53	=53	=53	=53	=53	=53	=53	=53
!	!	!	!	!	!LO:TX:t=P:problem=takt nr 53 zapisany repetycją	!	!	!	!	!	!	!	!	!	!	!	!	!	!	!	!	!	!	!	!	!	!	!	!	!
4B-\	3	.	4b-\	.	12dd\Lyy	.	12bb-\L	.	4B-\	pa-	4f\	no-	4b-\	No-	4dd\	no-	4BB-/	4b-\	4b-\	.	4dd\	.	4d\	.	4dd\	.	4bb-\	.	4ddd\	.
.	.	.	.	.	12ee-\yy	.	12ccc\	.	.	.	.	.	.	.	.	.	.	.	.	.	.	.	.	.	.	.	.	.	.	.
.	.	.	.	.	12ff\Jyy	.	12ddd\J	.	.	.	.	.	.	.	.	.	.	.	.	.	.	.	.	.	.	.	.	.	.	.
4B-\	.	.	4b-\	.	12dd\Lyy	.	12bb-\L	.	4B-\	-cem	4f\	-bis	4b-\	-bis	4dd\	-bis	8BB-/L	8b-\L	8b-\L	.	8dd\L	.	8d\L	.	8dd\L	.	8bb-\L	.	8ddd\L	.
.	.	.	.	.	12ee-\yy	.	12ccc\	.	.	.	.	.	.	.	.	.	.	.	.	.	.	.	.	.	.	.	.	.	.	.
.	.	.	.	.	.	.	.	.	.	.	.	.	.	.	.	.	8BB-/J	8b-\J	8b-\J	.	8dd\J	.	8d\J	.	8dd\J	.	8bb-\J	.	8ddd\J	.
.	.	.	.	.	12ff\Jyy	.	12ddd\J	.	.	.	.	.	.	.	.	.	.	.	.	.	.	.	.	.	.	.	.	.	.	.
*	*	*	*	*	*	*	*	*	*	*	*	*	*	*	*	*	*	*	*custos:g	*	*	*	*	*	*	*	*	*	*	*
!	!	!	!	!	!	!	!	!	!	!	!	!	!	!	!	!	!	!	!LO:LB:g=original	!	!	!	!	!	!	!	!	!	!	!
4F\	5 3	.	4a\	.	12a\Lyy	.	12ff\L	.	2F\	pa-	2e-\	pa-	2a\	Pa-	2cc\	pa-	4FF/	4f/	4f/	.	4cc\	.	4c\	.	4cc\	.	4aa\	.	4ccc\	.
.	.	.	.	.	12b-\yy	.	12gg\	.	.	.	.	.	.	.	.	.	.	.	.	.	.	.	.	.	.	.	.	.	.	.
.	.	.	.	.	12cc\Jyy	.	12aa\J	.	.	.	.	.	.	.	.	.	.	.	.	.	.	.	.	.	.	.	.	.	.	.
4F\	.	.	4a\	.	12a\Lyy	.	12ff\L	.	.	.	.	.	.	.	.	.	8FF/L	8f/L	8f/L	.	8cc\L	.	8c\L	.	8cc\L	.	8aa\L	.	8ccc\L	.
.	.	.	.	.	12b-\yy	.	12gg\	.	.	.	.	.	.	.	.	.	.	.	.	.	.	.	.	.	.	.	.	.	.	.
.	.	.	.	.	.	.	.	.	.	.	.	.	.	.	.	.	8FF/J	8f/J	8f/J	.	8cc\J	.	8c\J	.	8cc\J	.	8aa\J	.	8ccc\J	.
.	.	.	.	.	12cc\Jyy	.	12aa\J	.	.	.	.	.	.	.	.	.	.	.	.	.	.	.	.	.	.	.	.	.	.	.
!LO:LB:g=original	!	!	!	!	!	!	!	!	!	!	!	!	!	!	!	!	!	!	!	!	!	!	!	!	!	!	!LO:LB:g=original	!	!	!
=54	=54	=54	=54	=54	=54	=54	=54	=54	=54	=54	=54	=54	=54	=54	=54	=54	=54	=54	=54	=54	=54	=54	=54	=54	=54	=54	=54	=54	=54	=54
4BB-/	8 5 3	.	4b-\	.	4dd\	.	4bb-\	.	4BB-/	-cem.	4f\	-cem	4b-\	-cem	4dd\	-cem	4BB-/	4b-\	4d/	.	4b-\	.	4d\	.	4dd\	.	4bb-\	.	4bb-\	.
4r	.	.	4r	.	4r	.	4r	.	4r	.	4r	.	4r	.	4r	.	4r	4r	4r	.	4r	.	4r	.	4r	.	4r	.	4r	.
!	!	!	!LO:SIC:v:n=2:s=4B-/	!	!	!	!	!	!	!	!	!	!	!	!	!	!	!	!	!	!	!	!	!	!	!	!	!	!	!
4BB-/	8 5 3	.	4f 4G/	.	4dd 4f 4B-/	.	4bb- 4dd 4f\	.	2r	.	2r	.	2r	.	2r	.	4BB-/	4b-\	4d/	.	4b-\	.	4d\	.	4dd\	.	4bb-\	.	4bb-\	.
!	!	!	!LO:SIC:v:n=2:s=4B-/	!	!	!	!	!	!	!	!	!	!	!	!	!	!	!	!	!	!	!	!	!	!	!	!	!	!	!
4BB-/	8 5 3	.	4f 4G/	.	4dd 4f 4B-/	.	4bb- 4dd 4f\	.	.	.	.	.	.	.	.	.	4BB-/	4b-\	4d/	.	4b-\	.	4d\	.	4dd\	.	4bb-\	.	4bb-\	.
!	!	!	!	!	!	!	!	!	!	!	!	!	!LO:LB:g=original	!	!	!	!	!	!	!	!	!	!	!	!LO:LB:g=original	!	!	!	!	!
=55	=55	=55	=55	=55	=55	=55	=55	=55	=55	=55	=55	=55	=55	=55	=55	=55	=55	=55	=55	=55	=55	=55	=55	=55	=55	=55	=55	=55	=55	=55
!	!	!	!	!	!	!	!	!	!LO:TX:a:t=1.	!	!LO:TX:a:t=1	!	!LO:TX:b:t=1	!	!LO:TX:a:t=1.	!	!	!	!	!	!	!	!	!	!	!	!	!	!	!
2BB-/	8 5 3	.	2f 2B-/	.	2dd 2f 2B-/	.	2bb- 2dd 2f\	.	1r	.	1r	.	1r	.	1r	.	2BB-/	2b-\	2d/	.	2b-\	.	2d\	.	2dd\	.	2bb-\	.	2bb-\	.
!LO:TX:b:Bi:t=Fine	!	!	!LO:TX:b:Bi:t=Finis.	!	!	!	!LO:TX:b:Bi:t=Finis	!	!LO:TX:b:Bi:t=Finis	!	!LO:TX:b:B:t=Finis.	!	!LO:TX:b:Bi:t=Finis:color=grey	!	!LO:TX:b:B:t=Finis.	!	!LO:TX:b:i:t=Finiſ	!	!	!	!LO:TX:b:B:t=Finiſ	!	!LO:TX:b:B:t=Finis.	!	!LO:TX:b:Bi:t=Finis	!	!LO:TX:b:B:t=Finis	!	!LO:TX:b:B:t=Finis.	!
2r	.	.	2r	.	2r	.	2r	.	.	.	.	.	.	.	.	.	2r	2r	2r	.	2r	.	2r	.	2r	.	2r	.	2r	.
==;	==	==	==	==	==;	==	==;	==	==	==	==;	==	==	==	==;;	==	==	==	==;	==	==;	==	==	==	==;	==	==	==	==	==
*-	*-	*-	*-	*-	*-	*-	*-	*-	*-	*-	*-	*-	*-	*-	*-	*-	*-	*-	*-	*-	*-	*-	*-	*-	*-	*-	*-	*-	*-	*-
!!!system-decoration: [(g1)][(g2)]<s8>[(g3)][(g4)]<s16>
!!!RDF**kern: | = vertical stroke
!!!RDF**dynam: p = "pia"
!!!ENC: Kamil Watkowski
!!!END: 2020-10-20
!!!ENC: Andrzej Kubiczek
!!!END: 2022-01-18
